DSAA
100 100
0.000000 30.000000
0.000000 25.000000
-251.493878 184.083082
35.544000 35.120485 34.696970 34.273455 33.849939 33.426424 33.002909 32.579394 32.155879 31.732364 31.308848 30.885333 30.461818 30.038303 29.614788 29.191273 28.767758 28.397455 28.080364 27.763273 27.446182 27.129091 26.812000 26.494909 26.177818 25.860727 25.543636 25.226545 24.909455 24.592364 24.275273 23.958182 23.641091 23.324000 22.201636 21.079273 19.956909 18.834545 17.712182 16.589818 15.467455 14.345091 13.222727 12.100364 10.978000 9.855636 8.733273 7.610909 6.488545 5.366182 5.455364 6.756091 8.056818 9.357545 10.658273 11.959000 13.259727 14.560455 15.861182 17.161909 18.462636 19.763364 21.064091 22.364818 23.665545 24.966273 26.267000 25.467788 24.668576 23.869364 23.070152 22.270939 21.471727 20.672515 19.873303 19.074091 18.274879 17.475667 16.676455 15.877242 15.078030 14.278818 13.479606 5.824848 -8.685455 -23.195758 -37.706061 -52.216364 -66.726667 -81.236970 -95.747273 -110.257576 -124.767879 -139.278182 -153.788485 -168.298788 -182.809091 -197.319394 -211.829697 -226.340000 
34.221374 33.821666 33.421959 33.022252 32.622544 32.222837 31.823129 31.423422 31.023715 30.624007 30.224300 29.824593 29.424885 29.025178 28.625470 28.225763 27.815776 27.193027 26.357517 25.511727 24.665937 23.820147 22.974357 22.128567 21.282777 20.436987 19.591197 18.745407 17.899617 17.053827 16.208037 15.362247 14.516457 13.573331 12.321018 10.971369 9.621721 8.272072 6.922424 5.572775 4.223126 2.873478 1.523829 0.174181 -1.175468 -2.525117 -3.874765 -5.224414 -6.574062 -7.843895 -7.461734 -5.427578 -3.313606 -1.199634 0.914338 3.028310 5.142282 7.256253 9.370225 11.484197 13.598169 15.712141 17.826113 19.940084 22.054056 24.168028 25.727414 25.525142 24.768283 24.011425 23.254567 22.497709 21.740850 20.983992 20.227134 19.470275 18.713417 17.956559 17.199701 16.442842 15.685984 14.929126 13.871352 6.585363 -6.928843 -20.743964 -34.559085 -48.374206 -62.189327 -76.004448 -89.819568 -103.634689 -117.449810 -131.264931 -145.080052 -158.895173 -172.710294 -186.525415 -200.340536 -214.155657 
32.898747 32.522848 32.146948 31.771049 31.395149 31.019249 30.643350 30.267450 29.891551 29.515651 29.139751 28.763852 28.387952 28.012053 27.636153 27.260253 26.734103 25.858909 24.634670 23.260181 21.885692 20.511203 19.136714 17.762225 16.387736 15.013246 13.638757 12.264268 10.889779 9.515290 8.140801 6.766312 5.385871 3.944795 2.434449 0.863466 -0.713467 -2.290401 -3.867335 -5.444268 -7.021202 -8.598135 -10.175069 -11.752002 -13.328936 -14.905870 -16.482803 -18.059737 -19.636670 -20.535898 -19.860757 -17.611246 -14.684030 -11.756813 -8.829597 -5.902380 -2.975164 -0.047948 2.879269 5.806485 8.733702 11.660918 14.588134 17.515351 20.442567 23.262732 24.992133 25.475444 24.867991 24.153487 23.438982 22.724478 22.009973 21.295469 20.580964 19.866460 19.151956 18.437451 17.722947 17.008442 16.293938 15.579433 12.998375 6.081154 -5.172231 -18.292170 -31.412109 -44.532048 -57.651987 -70.771925 -83.891864 -97.011803 -110.131742 -123.251680 -136.371619 -149.491558 -162.611497 -175.731436 -188.851374 -201.971313 
31.576121 31.224029 30.871938 30.519846 30.167754 29.815662 29.463570 29.111478 28.759387 28.407295 28.055203 27.703111 27.351019 26.998927 26.646836 26.256597 25.511199 24.383559 22.873677 21.008635 19.105447 17.202259 15.299071 13.395882 11.492694 9.589506 7.686318 5.783129 3.879941 1.976753 0.073565 -1.829624 -3.721032 -5.586686 -7.428439 -9.244437 -11.048656 -12.852874 -14.657093 -16.461311 -18.265530 -20.069748 -21.873967 -23.678185 -25.482404 -27.286623 -29.090841 -30.895060 -32.562916 -32.961188 -31.993067 -29.658553 -26.054454 -22.313993 -18.573532 -14.833071 -11.092610 -7.352149 -3.611688 0.128773 3.869234 7.609695 11.350156 15.090617 18.831078 22.046343 24.113309 25.114654 24.967699 24.295548 23.623398 22.951247 22.279096 21.606946 20.934795 20.262645 19.590494 18.918343 18.246193 17.574042 16.901892 15.940706 12.288484 5.740030 -3.704655 -15.840376 -28.265133 -40.689890 -53.114646 -65.539403 -77.964160 -90.388916 -102.813673 -115.238430 -127.663186 -140.087943 -152.512700 -164.937456 -177.362213 -189.786970 
30.253495 29.925211 29.596927 29.268643 28.940359 28.612075 28.283791 27.955507 27.627223 27.298938 26.970654 26.642370 26.314086 25.985802 25.657518 25.149363 24.181950 22.801864 21.009106 18.757090 16.325202 13.893315 11.461428 9.029540 6.597653 4.165766 1.733878 -0.698009 -3.129897 -5.561784 -7.993671 -10.419913 -12.772590 -15.042945 -17.235981 -19.346695 -21.383844 -23.415347 -25.446851 -27.478354 -29.509858 -31.541361 -33.572865 -35.604369 -37.635872 -39.667376 -41.698879 -43.730383 -45.198809 -45.229557 -43.968456 -41.415506 -37.424878 -32.871172 -28.317466 -23.763761 -19.210055 -14.656350 -10.102644 -5.548939 -0.995233 3.558472 8.112178 12.665883 17.146496 20.674722 23.137171 24.598631 24.994313 24.437610 23.807813 23.178016 22.548219 21.918423 21.288626 20.658829 20.029032 19.399236 18.769439 18.139642 17.509845 15.930948 11.928753 5.749068 -2.608109 -13.388583 -25.118157 -36.847732 -48.577306 -60.306881 -72.036455 -83.766030 -95.495605 -107.225179 -118.954754 -130.684328 -142.413903 -154.143477 -165.873052 -177.602626 
28.930869 28.626392 28.321916 28.017440 27.712964 27.408487 27.104011 26.799535 26.495058 26.190582 25.886106 25.581630 25.277153 24.972677 24.658271 23.965875 22.778918 21.146387 19.068281 16.495614 13.544957 10.584371 7.623785 4.663198 1.702612 -1.257975 -4.218561 -7.179148 -10.139734 -13.100321 -16.060907 -18.985341 -21.775575 -24.443357 -26.994950 -29.424091 -31.719032 -33.977821 -36.236609 -38.495398 -40.754186 -43.012975 -45.271763 -47.530552 -49.789340 -52.048129 -54.306917 -56.537197 -57.682263 -57.407432 -55.853351 -53.020020 -48.766793 -43.428351 -38.061401 -32.694451 -27.327501 -21.960551 -16.593601 -11.226651 -5.859701 -0.492751 4.874200 10.241150 15.301359 19.222959 22.105615 24.002466 24.860374 24.579671 23.992228 23.404785 22.817343 22.229900 21.642457 21.055014 20.467571 19.880128 19.292685 18.705242 18.078743 15.965546 11.907149 6.096231 -1.467207 -10.975845 -21.971182 -33.005574 -44.039966 -55.074359 -66.108751 -77.143144 -88.177536 -99.211928 -110.246321 -121.280713 -132.315106 -143.349498 -154.383890 -165.418283 
27.608242 27.327574 27.046905 26.766237 26.485568 26.204900 25.924231 25.643563 25.362894 25.082226 24.801557 24.520889 24.240220 23.959552 23.609204 22.734898 21.332082 19.447105 17.079967 14.184319 10.764713 7.275427 3.786141 0.296856 -3.192430 -6.681715 -10.171001 -13.660287 -17.149572 -20.638858 -24.128143 -27.525034 -30.743282 -33.805471 -36.718641 -39.475752 -42.054220 -44.540294 -47.026367 -49.512441 -51.998514 -54.484588 -56.970661 -59.456735 -61.942808 -64.428882 -66.914955 -69.212829 -70.095525 -69.550750 -67.703690 -64.554344 -59.977526 -53.985531 -47.805336 -41.625141 -35.444947 -29.264752 -23.084557 -16.904363 -10.724168 -4.543973 1.636221 7.816416 13.377220 17.740446 21.057488 23.375552 24.647431 24.721733 24.176644 23.631555 23.086466 22.541376 21.996287 21.451198 20.906109 20.361020 19.815931 19.270842 18.513060 16.155926 12.185545 6.743396 -0.170523 -8.697688 -18.824206 -29.163416 -39.502626 -49.841837 -60.181047 -70.520257 -80.859467 -91.198678 -101.537888 -111.877098 -122.216309 -132.555519 -142.894729 -153.233939 
26.285616 26.028755 25.771895 25.515034 25.258173 25.001313 24.744452 24.487591 24.230730 23.973870 23.717009 23.460148 23.203287 22.946427 22.527963 21.483394 19.869512 17.732090 15.071126 11.840850 7.984468 3.966483 -0.051502 -4.069486 -8.087471 -12.105456 -16.123440 -20.141425 -24.159410 -28.177395 -32.191818 -36.047056 -39.690002 -43.145520 -46.421345 -49.509743 -52.385848 -55.102767 -57.816125 -60.529484 -63.242842 -65.956201 -68.669559 -71.382918 -74.096276 -76.809635 -79.522993 -81.819284 -82.499704 -81.710832 -79.570792 -76.079583 -71.119082 -64.542710 -57.549271 -50.555832 -43.562392 -36.568953 -29.575514 -22.582075 -15.588635 -8.595196 -1.601757 5.371221 11.429544 16.268071 20.029664 22.758775 24.410952 24.843333 24.361059 23.858324 23.355589 22.852853 22.350118 21.847383 21.344648 20.841912 20.339177 19.836442 18.940937 16.523700 12.722769 7.649388 1.303555 -6.425972 -15.677230 -25.321258 -34.965286 -44.609314 -54.253343 -63.897371 -73.541399 -83.185427 -92.829455 -102.473483 -112.117511 -121.761540 -131.405568 -141.049596 
24.962990 24.729937 24.496884 24.263831 24.030778 23.797725 23.564672 23.331619 23.098566 22.865513 22.632460 22.399407 22.166354 21.933301 21.437821 20.236892 18.418058 16.028190 13.067287 9.488479 5.204223 0.657539 -3.889145 -8.435829 -12.982512 -17.529196 -22.075880 -26.622564 -31.169248 -35.715931 -40.247807 -44.562013 -48.629947 -52.478862 -56.117274 -59.536667 -62.709789 -65.665240 -68.605884 -71.546527 -74.487170 -77.427814 -80.368457 -83.309101 -86.249744 -89.190388 -92.131031 -94.417842 -94.947041 -93.936741 -91.503721 -87.647981 -82.252741 -75.099890 -67.293206 -59.486522 -51.679838 -43.873154 -36.066470 -28.259787 -20.453103 -12.646419 -4.839735 2.890723 9.500730 14.843060 19.057988 22.189362 24.193335 24.929630 24.545474 24.085093 23.624712 23.164330 22.703949 22.243567 21.783186 21.322805 20.862423 20.402042 19.425250 17.060259 13.479340 8.774726 2.946418 -4.097818 -12.530254 -21.479100 -30.427946 -39.376792 -48.325638 -57.274484 -66.223330 -75.172176 -84.121022 -93.069868 -102.018714 -110.967560 -119.916406 -128.865253 
23.640364 23.431118 23.221873 23.012628 22.803383 22.594138 22.384893 22.175647 21.966402 21.757157 21.547912 21.338667 21.129421 20.920176 20.359800 19.019892 17.003968 14.361654 11.092950 7.148230 2.423978 -2.651405 -7.726788 -12.802171 -17.877554 -22.952937 -28.028320 -33.103702 -38.179085 -43.254468 -48.302207 -53.081168 -57.577107 -61.820357 -65.820419 -69.567790 -73.032141 -76.227713 -79.395642 -82.563570 -85.731499 -88.899427 -92.067355 -95.235284 -98.403212 -101.571140 -104.739069 -107.056409 -107.485390 -106.276774 -103.550774 -99.307390 -93.426409 -85.657069 -77.037140 -68.417212 -59.797284 -51.177355 -42.557427 -33.937499 -25.317570 -16.697642 -8.077713 0.411230 7.626642 13.501036 18.178125 21.702937 24.030444 25.016932 24.729890 24.311862 23.893835 23.475807 23.057780 22.639752 22.221725 21.803697 21.385669 20.967642 19.984211 17.745547 14.418338 10.082492 4.738010 -1.695018 -9.383278 -17.636942 -25.890606 -34.144270 -42.397934 -50.651598 -58.905262 -67.158926 -75.412590 -83.666253 -91.919917 -100.173581 -108.427245 -116.680909 
22.317737 22.132300 21.946863 21.761425 21.575988 21.390550 21.205113 21.019676 20.834238 20.648801 20.463363 20.277926 20.092489 19.907051 19.312502 17.856166 15.653476 12.758716 9.171887 4.838703 -0.356267 -5.960349 -11.564431 -17.168513 -22.772595 -28.376677 -33.980759 -39.584841 -45.188923 -50.793005 -56.361349 -61.615724 -66.545351 -71.184721 -75.544646 -79.614314 -83.359235 -86.790187 -90.185400 -93.580613 -96.975827 -100.371040 -103.766253 -107.161467 -110.556680 -113.951893 -117.347107 -119.773766 -120.160189 -118.779650 -115.760671 -111.103250 -104.678867 -96.214248 -86.781075 -77.347902 -67.914729 -58.481556 -49.048384 -39.615211 -30.182038 -20.748865 -11.315692 -2.041221 5.839019 12.277165 17.426373 21.334664 23.954017 25.131277 24.914305 24.538631 24.162958 23.787284 23.411610 23.035937 22.660263 22.284589 21.908916 21.533242 20.615260 18.554919 15.505229 11.538151 6.653686 0.779871 -6.236302 -13.794784 -21.353266 -28.911748 -36.470230 -44.028711 -51.587193 -59.145675 -66.704157 -74.262639 -81.821120 -89.379602 -96.938084 -104.496566 
20.995111 20.833481 20.671852 20.510222 20.348593 20.186963 20.025333 19.863704 19.702074 19.540444 19.378815 19.217185 19.055556 18.893926 18.311306 16.768881 14.393345 11.246140 7.327265 2.575279 -3.136512 -9.269293 -15.402074 -21.534855 -27.667636 -33.800418 -39.933199 -46.065980 -52.198761 -58.331542 -64.429986 -70.176377 -75.548575 -80.586861 -85.303854 -89.686936 -93.695825 -97.352660 -100.975158 -104.597657 -108.220155 -111.842653 -115.465152 -119.087650 -122.710148 -126.332646 -129.955145 -132.599829 -133.015218 -131.495579 -128.183619 -123.079339 -116.040031 -106.771428 -96.525010 -86.278593 -76.032175 -65.785758 -55.539340 -45.292923 -35.046505 -24.800088 -14.553670 -4.451968 4.165986 11.206877 16.840480 21.119974 23.992181 25.287325 25.098721 24.765401 24.432081 24.098761 23.765441 23.432121 23.098801 22.765481 22.432162 22.098842 21.305132 19.461791 16.707369 13.109060 8.666862 3.313583 -3.089327 -9.952626 -16.815926 -23.679226 -30.542525 -37.405825 -44.269125 -51.132424 -57.995724 -64.859024 -71.722323 -78.585623 -85.448923 -92.312222 
19.672485 19.534663 19.396841 19.259019 19.121197 18.983376 18.845554 18.707732 18.569910 18.432088 18.294266 18.156444 18.018623 17.880801 17.366454 15.780369 13.251398 9.851747 5.581416 0.368198 -5.916757 -12.578237 -19.239717 -25.901197 -32.562678 -39.224158 -45.885638 -52.547118 -59.208599 -65.870079 -72.509334 -78.772740 -84.600826 -90.042214 -95.112090 -99.795267 -104.043124 -107.915133 -111.764916 -115.614700 -119.464483 -123.314266 -127.164050 -131.013833 -134.863616 -138.713399 -142.563183 -145.552439 -146.092302 -144.477251 -140.872312 -135.277484 -127.527742 -117.328607 -106.268945 -95.209283 -84.149621 -73.089959 -62.030297 -50.970635 -39.910972 -28.851310 -17.791648 -6.821709 2.630955 10.326263 16.460496 21.094959 24.168347 25.484379 25.283136 24.992170 24.701204 24.410238 24.119272 23.828306 23.537340 23.246374 22.955408 22.664442 22.034265 20.438562 17.993414 14.763872 10.749936 5.886556 0.057649 -6.110468 -12.278586 -18.446703 -24.614821 -30.782938 -36.951056 -43.119174 -49.287291 -55.455409 -61.623526 -67.791644 -73.959761 -80.127879 
18.349859 18.235845 18.121830 18.007816 17.893802 17.779788 17.665774 17.551760 17.437746 17.323732 17.209718 17.095704 16.981690 16.867676 16.478816 14.911200 12.257008 8.604912 3.954910 -1.781668 -8.697002 -15.887181 -23.077360 -30.267540 -37.457719 -44.647898 -51.838078 -59.028257 -66.218436 -73.408616 -80.593594 -87.412191 -93.716315 -99.567105 -104.983562 -109.946686 -114.395337 -118.477606 -122.554675 -126.631743 -130.708811 -134.785879 -138.862948 -142.940016 -147.017084 -151.094152 -155.171221 -158.628775 -159.429364 -157.780765 -153.882846 -147.735606 -139.139179 -127.885786 -116.012880 -104.139973 -92.267066 -80.394160 -68.521253 -56.648346 -44.775440 -32.902533 -21.029627 -9.176970 1.249105 9.671977 16.329706 21.296272 24.497694 25.695913 25.467551 25.218939 24.970327 24.721715 24.473103 24.224490 23.975878 23.727266 23.478654 23.230042 22.778511 21.456707 19.332685 16.471911 12.874386 8.474642 3.204625 -2.268310 -7.741246 -13.214181 -18.687117 -24.160052 -29.632987 -35.105923 -40.578858 -46.051794 -51.524729 -56.997665 -62.470600 -67.943535 
17.027232 16.937026 16.846820 16.756613 16.666407 16.576201 16.485994 16.395788 16.305582 16.215376 16.125169 16.034963 15.944757 15.854550 15.630466 14.177659 11.441499 7.536956 2.464032 -3.892246 -11.477246 -19.196125 -26.915003 -34.633882 -42.352760 -50.071639 -57.790517 -65.509396 -73.228274 -80.947153 -88.666031 -96.097319 -102.909124 -109.179140 -114.932356 -120.143783 -124.735726 -129.040080 -133.344433 -137.648786 -141.953139 -146.257493 -150.561846 -154.866199 -159.170552 -163.474905 -167.779259 -171.785440 -173.055023 -171.466333 -167.275434 -160.482326 -150.830945 -138.442966 -125.756815 -113.070663 -100.384512 -87.698361 -75.012210 -62.326058 -49.639907 -36.953756 -24.267605 -11.581454 0.018827 9.280091 16.495693 21.759984 24.978612 25.858225 25.651967 25.445708 25.239450 25.033192 24.826933 24.620675 24.414417 24.208158 24.001900 23.795642 23.509157 22.486358 20.694507 18.202501 15.010340 11.049127 6.351601 1.573848 -3.203906 -7.981659 -12.759412 -17.537166 -22.314919 -27.092672 -31.870425 -36.648179 -41.425932 -46.203685 -50.981439 -55.759192 
15.704606 15.638208 15.571809 15.505410 15.439012 15.372613 15.306215 15.239816 15.173418 15.107019 15.040621 14.974222 14.907824 14.841425 14.761981 13.585194 10.838224 6.681236 1.114230 -6.022959 -14.257491 -22.505069 -30.752646 -39.000224 -47.247802 -55.495379 -63.742957 -71.990534 -80.238112 -88.485690 -96.733267 -104.819690 -112.192151 -118.897657 -124.971367 -130.378121 -135.070915 -139.602553 -144.134191 -148.665829 -153.197467 -157.729106 -162.260744 -166.792382 -171.324020 -175.855658 -180.387297 -184.890184 -186.974563 -185.598316 -181.114437 -173.522926 -162.470790 -149.000145 -135.500749 -122.001354 -108.501958 -95.002562 -81.503166 -68.003770 -54.504375 -41.004979 -27.505583 -14.006187 -1.099350 9.182293 17.011577 22.517784 25.571633 26.000287 25.836382 25.672478 25.508573 25.344669 25.180764 25.016860 24.852955 24.689051 24.525146 24.361242 24.191089 23.495324 22.047464 19.924227 17.125610 13.574899 9.498577 5.416006 1.333434 -2.749137 -6.831708 -10.914279 -14.996850 -19.079421 -23.161993 -27.244564 -31.327135 -35.409706 -39.492277 -43.574848 
14.381980 14.339389 14.296798 14.254208 14.211617 14.169026 14.126405 14.083571 14.042024 14.000367 13.956857 13.913481 13.870891 13.828300 13.785709 13.110047 10.481599 6.072165 -0.118254 -8.261459 -17.037736 -25.814013 -34.590290 -43.352425 -52.086918 -60.845215 -69.649968 -78.470127 -87.247950 -96.024227 -104.800503 -113.542780 -121.573722 -128.744256 -135.108922 -140.613180 -145.406103 -150.165026 -154.923949 -159.679864 -164.341705 -169.015083 -173.798100 -178.671068 -183.477488 -188.236411 -192.995335 -197.754258 -201.130757 -200.242998 -195.466140 -186.800182 -173.869965 -159.557324 -145.244684 -130.932044 -116.582770 -102.189324 -87.867973 -73.618564 -59.367116 -45.056202 -30.743561 -16.430921 -2.240442 9.394241 17.937511 23.585330 26.141738 26.142348 26.020797 25.899247 25.777892 25.661863 25.543825 25.419963 25.293222 25.169943 25.048392 24.926841 24.805291 24.447012 23.358517 21.604047 19.183603 16.032942 12.645552 9.258163 5.870774 2.475909 -0.934452 -4.332565 -7.704560 -11.067061 -14.453560 -17.840949 -21.228338 -24.615727 -28.003116 -31.390505 
13.059354 13.040571 13.021788 13.003005 12.977332 12.944701 12.925207 12.919976 12.922885 12.925454 12.919053 12.896870 12.857637 12.816013 12.796392 12.638318 10.402062 5.740182 -1.347320 -10.513005 -19.813566 -28.941284 -37.924299 -46.876546 -55.884409 -65.018456 -74.334354 -83.864921 -93.595697 -103.395854 -112.867739 -122.172715 -131.045836 -138.743445 -145.337020 -150.755083 -155.741291 -160.470312 -164.569708 -168.583043 -172.792185 -177.345646 -182.326694 -187.768499 -193.635556 -199.751598 -205.577395 -210.589581 -215.274112 -215.457703 -210.387865 -200.064597 -185.240389 -170.091435 -154.251562 -138.241087 -122.518491 -107.188747 -92.224420 -77.540042 -63.018755 -48.518826 -33.865718 -18.855655 -3.729770 9.875686 19.342513 24.922374 26.363606 26.284410 26.226566 26.210331 26.184616 26.132937 26.053837 25.951933 25.834719 25.711452 25.593048 25.492946 25.413245 25.294853 24.591689 23.205987 21.137748 18.484735 15.790568 13.012848 10.152056 7.263173 4.395689 1.593676 -1.106050 -3.679644 -6.131395 -8.535758 -11.129541 -13.821748 -16.513955 -19.206162 
11.736727 11.741752 11.744569 11.694954 11.655835 11.654685 11.688524 11.747078 11.818024 11.888486 11.945553 11.976719 11.970951 11.922157 11.842370 11.812099 10.600309 5.685984 -2.930876 -12.637999 -21.965893 -31.097503 -40.157421 -49.242041 -58.436593 -67.820931 -77.471476 -87.459943 -97.846129 -108.654576 -119.795952 -130.730234 -140.530374 -148.923440 -155.577542 -160.815475 -164.506084 -167.519876 -170.591601 -173.984135 -177.833640 -182.233068 -187.258183 -192.974474 -199.431895 -206.640276 -214.490786 -222.468815 -228.638397 -231.235810 -225.872992 -212.549942 -195.728951 -177.367694 -159.318820 -142.005384 -125.452858 -109.573113 -94.241070 -79.318580 -64.661072 -50.116936 -35.521689 -20.682693 -5.326790 10.349074 21.306771 26.251360 26.468265 26.572765 26.702640 26.788500 26.819308 26.798749 26.735050 26.637969 26.517855 26.385465 26.252144 26.130349 26.035008 25.984355 25.705084 24.688150 22.933554 20.887448 18.658802 16.299980 13.873622 11.437905 9.047822 6.756270 4.614463 2.670942 0.967181 -0.476510 -1.708605 -3.050814 -5.024793 -7.021818 
10.414101 10.421805 10.298660 10.230113 10.236633 10.305532 10.420657 10.565941 10.725849 10.885196 11.028824 11.141264 11.206491 11.208061 11.130923 10.973304 10.814712 5.647941 -4.356259 -13.893235 -23.171824 -32.315978 -41.423918 -50.584645 -59.883501 -69.405542 -79.238167 -89.473260 -100.208509 -111.546205 -123.582641 -136.352307 -149.397538 -159.317178 -165.163978 -167.245422 -168.939588 -170.922044 -173.351207 -176.307468 -179.855685 -184.061417 -188.997053 -194.744882 -201.398461 -209.061137 -217.835625 -227.777143 -238.631885 -247.012120 -241.356322 -221.803375 -200.156745 -179.698969 -160.581589 -142.657254 -125.737483 -109.636479 -94.178917 -79.199092 -64.537527 -50.036569 -35.535089 -20.861235 -5.818217 9.880627 23.924565 26.600096 26.951250 27.264611 27.481539 27.607105 27.654346 27.637043 27.568368 27.460745 27.326035 27.175821 27.021754 26.875972 26.751685 26.664554 26.632536 25.984370 24.602382 22.952839 21.106916 19.135598 17.103736 15.071863 13.098186 11.240400 9.557324 8.110323 6.964254 6.186903 5.842730 5.959176 6.265366 5.162525 
8.824192 8.701643 8.606715 8.623254 8.728727 8.901926 9.123838 9.377121 9.645525 9.913352 10.164941 10.384163 10.553891 10.655423 10.667894 10.568132 10.339630 5.081564 -4.763711 -14.257764 -23.527719 -32.676234 -41.796188 -50.975100 -60.298407 -69.852360 -79.726816 -90.018140 -100.832376 -112.288811 -124.523797 -137.693025 -151.952914 -165.714743 -167.743250 -168.380356 -169.449895 -171.012836 -173.106907 -175.773441 -179.061873 -183.031815 -187.754957 -193.317324 -199.822088 -207.393078 -216.178882 -226.356279 -238.122744 -251.493878 -245.676177 -221.029446 -198.377775 -177.588739 -158.362513 -140.429803 -123.555621 -107.532713 -92.174635 -77.309535 -62.774573 -48.410663 -34.057241 -19.546602 -4.697133 10.697696 26.357390 27.506683 27.986024 28.321932 28.535364 28.647104 28.675383 28.636190 28.543790 28.411198 28.250613 28.073805 27.892506 27.718796 27.565559 27.447040 27.380164 26.989706 25.970811 24.672784 23.177687 21.557992 19.879205 18.202447 16.586675 15.090671 13.774959 12.703752 11.947067 11.583075 11.700618 12.400824 13.786065 15.028323 
6.165152 6.458661 6.678639 6.878370 7.134093 7.444904 7.798563 8.180740 8.576867 8.972456 9.353028 9.704008 10.010867 10.260249 10.445102 10.593527 10.385394 5.455860 -4.160402 -13.760919 -23.054607 -32.195811 -41.290293 -50.429156 -59.697653 -69.179248 -78.958014 -89.119764 -99.750821 -110.930274 -122.699423 -134.924742 -146.356878 -155.276527 -161.262702 -164.433440 -166.147304 -167.866027 -169.915877 -172.431054 -175.497572 -179.189132 -183.579099 -188.744700 -194.766417 -201.719660 -209.644297 -218.427838 -227.184951 -231.614568 -225.976445 -210.298783 -190.596450 -171.146889 -152.732746 -135.374752 -118.948071 -103.296133 -88.258715 -73.678428 -59.400322 -45.268637 -31.121370 -16.780773 -2.028453 13.519113 25.869673 29.467034 29.550374 29.734453 29.857991 29.904282 29.879229 29.793601 29.659086 29.487305 29.289662 29.077486 28.862332 28.656418 28.473432 28.331094 28.212426 27.790346 27.040957 26.058660 24.880449 23.575607 22.208195 20.837984 19.522186 18.317036 17.279051 16.465734 15.934924 15.740238 15.912669 16.377524 16.382529 15.619939 
3.506111 4.004313 4.502515 4.985995 5.448064 5.932021 6.443664 6.976509 7.520312 8.063679 8.595145 9.104114 9.582811 10.031990 10.482000 10.979141 9.685358 5.121819 -2.711475 -12.332952 -21.702732 -30.833319 -39.868383 -48.909731 -58.042782 -67.344170 -76.883296 -86.718826 -96.885818 -107.357478 -117.919850 -127.840108 -137.211157 -144.917908 -150.865217 -155.148229 -158.770317 -161.307325 -163.643301 -166.164907 -169.056001 -172.427782 -176.358392 -180.902467 -186.081489 -191.843688 -197.939099 -203.464875 -207.522384 -208.203196 -202.775122 -191.238162 -176.326735 -160.113431 -143.524371 -127.370230 -111.818778 -96.845981 -82.359407 -68.238645 -54.348566 -40.541125 -26.648982 -12.464222 2.265919 16.466390 26.186118 31.168942 31.671024 31.526533 31.463889 31.388575 31.273397 31.115373 30.919505 30.693824 30.447716 30.191419 29.936111 29.694527 29.482913 29.300121 29.012547 28.533025 27.861556 27.083414 26.193114 25.168515 24.071463 22.958869 21.883782 20.896077 20.042100 19.362104 18.882306 18.591692 18.366006 17.764889 16.988222 16.211556 
0.847071 1.549965 2.252860 2.955754 3.658648 4.356957 5.056137 5.763680 6.476979 7.190018 7.896565 8.593028 9.283751 9.984698 10.687592 11.042781 9.135073 4.937529 -1.549851 -10.300127 -19.398110 -28.481147 -37.432943 -46.321789 -55.235484 -64.239728 -73.378644 -82.662988 -92.035545 -101.279950 -110.377932 -119.475914 -127.773984 -134.639131 -140.176282 -144.280509 -147.584825 -150.889140 -153.940457 -156.678572 -159.463916 -162.477995 -165.808870 -169.471423 -173.380946 -177.252461 -180.627977 -183.932293 -186.631914 -185.396136 -180.178111 -170.977839 -157.842167 -144.101802 -130.300806 -116.102247 -101.921550 -87.975814 -74.293386 -60.818425 -47.449229 -34.048708 -20.438512 -6.698147 7.042219 18.846400 27.182195 32.303583 33.956585 33.673403 33.390221 33.125685 32.877182 32.617117 32.338461 32.042918 31.736392 31.427340 31.126525 30.841582 30.558400 30.257211 29.838832 29.301870 28.646322 27.873585 27.082841 26.284902 25.419431 24.514860 23.617938 22.767962 21.993732 21.305102 20.671467 19.966147 19.175403 18.384659 17.593916 16.803172 
-1.811970 -0.904383 0.003204 0.910791 1.818377 2.725964 3.633551 4.541138 5.448725 6.356311 7.263898 8.171485 9.079072 9.986658 10.894245 10.867258 8.829436 4.997887 -0.627390 -8.263500 -16.834185 -25.404871 -33.975556 -42.546241 -51.116926 -59.687611 -68.258296 -76.828981 -85.399666 -93.970351 -102.541036 -110.988214 -118.307914 -124.441549 -129.458449 -133.289282 -135.992639 -138.572489 -141.152338 -143.732187 -146.312037 -148.891886 -151.471736 -154.051585 -156.631434 -159.211284 -161.791133 -164.370983 -165.454486 -163.318445 -158.310469 -150.430558 -139.331102 -126.735300 -114.139499 -101.543697 -88.947895 -76.352094 -63.756292 -51.160490 -38.564689 -25.968887 -13.373085 -0.777284 11.550926 21.436336 28.752006 33.648150 35.974555 35.858160 35.474173 35.090185 34.706198 34.322211 33.938224 33.554237 33.170250 32.786263 32.402275 32.018288 31.634301 31.208819 30.694056 30.099652 29.425607 28.662281 27.857460 27.052639 26.247818 25.442997 24.638176 23.833355 23.028534 22.223713 21.418893 20.614072 19.809251 19.004430 18.199609 17.394788 
-4.471010 -3.358731 -2.246452 -1.134173 -0.021893 1.090386 2.202665 3.314944 4.427223 5.539502 6.651781 7.764061 8.876340 9.988619 11.040970 10.730491 8.762620 5.297066 0.333828 -6.286802 -14.270261 -22.313649 -30.357037 -38.400425 -46.443813 -54.487200 -62.530588 -70.573976 -78.617364 -86.660752 -94.704140 -102.377776 -108.878496 -114.327565 -118.777267 -122.175319 -124.400454 -126.255837 -128.111221 -129.966604 -131.821988 -133.677371 -135.532755 -137.388138 -139.243522 -141.098905 -142.954289 -144.722574 -144.510156 -141.888925 -137.090998 -130.116375 -120.732939 -109.368799 -97.917561 -86.466323 -75.015085 -63.563848 -52.112610 -40.661372 -29.210134 -17.758896 -6.307658 5.143579 15.881605 24.357193 30.804255 35.323638 37.814496 38.042916 37.558124 37.073332 36.588540 36.103748 35.618956 35.134163 34.649371 34.164579 33.679787 33.194995 32.708016 32.171305 31.574113 30.922268 30.215769 29.448790 28.632079 27.813181 26.994283 26.175385 25.356487 24.537589 23.718691 22.899792 22.080894 21.261996 20.443098 19.624200 18.805302 17.986404 
-7.130051 -5.813079 -4.496107 -3.179136 -1.862164 -0.545193 0.771779 2.088750 3.405722 4.722693 6.039665 7.356636 8.673608 9.990579 11.077968 10.709185 8.913689 5.814129 1.410507 -4.419830 -11.706337 -19.222428 -26.738519 -34.254609 -41.770700 -49.286790 -56.802881 -64.318972 -71.835062 -79.351153 -86.867239 -93.746410 -99.511088 -104.300612 -108.158096 -111.040426 -112.808264 -113.939186 -115.070103 -116.201021 -117.331939 -118.462856 -119.593774 -120.724692 -121.855609 -122.986527 -124.117445 -124.951084 -123.899184 -120.999886 -116.412008 -110.135549 -102.011693 -92.002298 -81.695624 -71.388949 -61.082275 -50.775601 -40.468927 -30.162253 -19.855579 -9.548905 0.757769 11.064435 20.284607 27.603600 33.259108 37.324677 39.726761 40.227666 39.642076 39.056479 38.470882 37.885284 37.299687 36.714090 36.128493 35.542896 34.957298 34.371701 33.779674 33.146866 32.474101 31.764815 31.019008 30.233243 29.406698 28.573723 27.740747 26.907772 26.074797 25.241822 24.408847 23.575871 22.742896 21.909921 21.076946 20.243971 19.410995 18.578020 
-9.789091 -8.267427 -6.745763 -5.224099 -3.702435 -2.180771 -0.659107 0.862556 2.384220 3.905884 5.427548 6.949212 8.470876 9.992540 11.114666 10.822964 9.259926 6.526362 2.622270 -2.553158 -9.142413 -16.131207 -23.120000 -30.108793 -37.097587 -44.086380 -51.075174 -58.063967 -65.052760 -72.041554 -79.004470 -85.140012 -90.219570 -94.365168 -97.614815 -99.930502 -101.190206 -101.622534 -102.028986 -102.435438 -102.841890 -103.248342 -103.654793 -104.061245 -104.467697 -104.874149 -105.280601 -105.237839 -103.605471 -100.543700 -96.165870 -90.471983 -83.348693 -74.635796 -65.473686 -56.311576 -47.149466 -37.987355 -28.825245 -19.663135 -10.501025 -1.338915 7.823196 16.946589 24.832062 31.137571 36.045687 39.613279 41.783478 42.373713 41.726028 41.039625 40.353223 39.666821 38.980419 38.294017 37.607614 36.921212 36.234810 35.548408 34.854464 34.133831 33.389199 32.622472 31.833649 31.020827 30.181317 29.334264 28.487212 27.640160 26.793107 25.946055 25.099003 24.251950 23.404898 22.557846 21.710793 20.863741 20.016689 19.169636 
-12.448131 -10.721775 -8.995419 -7.269062 -5.542706 -3.816350 -2.089994 -0.363637 1.362719 3.089075 4.815432 6.541788 8.268144 9.994500 11.199377 11.071380 9.779839 7.412269 3.968670 -0.638473 -6.578489 -13.039985 -19.501481 -25.962978 -32.424474 -38.885970 -45.347466 -51.808962 -58.270459 -64.731955 -71.122409 -76.583534 -81.013965 -84.526810 -87.157447 -88.870498 -89.552855 -89.305883 -88.987869 -88.669855 -88.351841 -88.033827 -87.715813 -87.397799 -87.079785 -86.761770 -86.443756 -85.635363 -83.573588 -80.417664 -76.249883 -71.070248 -64.796462 -57.269295 -49.251748 -41.234202 -33.216656 -25.199109 -17.181563 -9.164017 -1.146470 6.871076 14.888623 22.813905 29.532239 34.911980 39.100025 42.142319 43.992918 44.504922 43.809979 43.022772 42.235565 41.448358 40.661150 39.873943 39.086736 38.299529 37.512321 36.725114 35.933199 35.129250 34.314796 33.490628 32.656745 31.812357 30.955936 30.094806 29.233677 28.372547 27.511418 26.650288 25.789159 24.928029 24.066900 23.205770 22.344641 21.483511 20.622382 19.761253 
-15.107172 -13.176123 -11.245074 -9.314026 -7.382977 -5.451928 -3.520880 -1.589831 0.341218 2.272266 4.203315 6.134364 8.065412 9.996461 11.349496 11.446107 10.453804 8.452229 5.441381 1.341620 -4.014565 -9.948764 -15.882963 -21.817162 -27.751361 -33.685560 -39.619759 -45.553958 -51.488157 -57.422356 -63.250801 -68.092623 -71.903079 -74.792299 -76.794798 -77.876061 -77.925958 -76.989232 -75.946752 -74.904272 -73.861792 -72.819312 -71.776832 -70.734352 -69.691872 -68.649392 -67.606912 -66.135951 -63.733604 -60.524045 -56.566314 -51.860410 -46.347295 -39.902793 -33.029811 -26.156828 -19.283846 -12.410863 -5.537881 1.335102 8.208084 15.081067 21.954050 28.709389 34.367190 38.877680 42.363368 44.862650 46.337131 46.664300 45.893931 45.005919 44.117906 43.229894 42.341882 41.453870 40.565857 39.677845 38.789833 37.901821 37.014749 36.129724 35.246471 34.364862 33.484896 32.606702 31.730555 30.855348 29.980141 29.104935 28.229728 27.354522 26.479315 25.604108 24.728902 23.853695 22.978489 22.103282 21.228075 20.352869 
-17.766212 -15.630471 -13.494730 -11.358989 -9.223248 -7.087507 -4.951766 -2.816025 -0.680284 1.455457 3.591198 5.726939 7.862680 9.998421 11.567224 11.935538 11.264056 9.628476 7.028797 3.389322 -1.450641 -6.857543 -12.264444 -17.671346 -23.078248 -28.485150 -33.892051 -39.298953 -44.705855 -50.112757 -55.404824 -59.678040 -62.895596 -65.169705 -66.535551 -66.957952 -66.324692 -64.672580 -62.905635 -61.138689 -59.371743 -57.604797 -55.837851 -54.070905 -52.303960 -50.537014 -48.770068 -46.705360 -44.010144 -40.768816 -37.021133 -32.767097 -27.966949 -22.536292 -16.807873 -11.079455 -5.351036 0.377383 6.105802 11.834220 17.562639 23.291058 29.019477 34.640370 39.307262 42.985685 45.780712 47.725286 48.786465 48.859175 47.977882 46.989065 46.000248 45.011431 44.022613 43.033796 42.044979 41.056162 40.067344 39.078527 38.097191 37.131697 36.179924 35.240874 34.314546 33.401939 32.505174 31.615890 30.726606 29.837322 28.948039 28.058755 27.169471 26.280187 25.390904 24.501620 23.612336 22.723052 21.833769 20.944485 
-20.425253 -18.084819 -15.744386 -13.403952 -11.063519 -8.723085 -6.382652 -4.042219 -1.701785 0.638648 2.979082 5.319515 7.659949 10.000382 11.845990 12.526534 12.194463 10.924878 8.717777 5.498063 1.113283 -3.766321 -8.645926 -13.525530 -18.405135 -23.284740 -28.164344 -33.043949 -37.923553 -42.803158 -47.588946 -51.347200 -54.000543 -55.668572 -56.388735 -56.123586 -54.753525 -52.355929 -49.864517 -47.373106 -44.881694 -42.390282 -39.898871 -37.407459 -34.916047 -32.424635 -29.933224 -27.298407 -24.325941 -21.060010 -17.522376 -13.713041 -9.610240 -5.169791 -0.585936 3.997919 8.581774 13.165629 17.749484 22.333339 26.917194 31.501049 36.084904 40.596548 44.317298 47.187598 49.299501 50.681830 51.305764 51.079246 50.061834 48.972212 47.882590 46.792967 45.703345 44.613723 43.524100 42.434478 41.344856 40.255234 39.178377 38.131576 37.110899 36.114407 35.142101 34.195919 33.279792 32.376432 31.473071 30.569710 29.666349 28.762988 27.859627 26.956266 26.052905 25.149545 24.246184 23.342823 22.439462 21.536101 
-23.084293 -20.539167 -17.994041 -15.448916 -12.903790 -10.358664 -7.813538 -5.268412 -2.723287 -0.178161 2.366965 4.912091 7.457217 10.002343 12.172609 13.204866 13.230236 12.326645 10.494093 7.654655 3.677207 -0.675100 -5.027407 -9.379715 -13.732022 -18.084329 -22.436637 -26.788944 -31.141251 -35.493559 -39.796210 -43.103996 -45.227419 -46.300134 -46.363849 -45.376855 -43.205500 -40.039278 -36.823400 -33.607522 -30.391645 -27.175767 -23.959890 -20.744012 -17.528135 -14.312257 -11.096380 -7.868360 -4.603479 -1.305985 2.021600 5.379274 8.769562 12.196711 15.636002 19.075293 22.514584 25.953875 29.393166 32.832457 36.271748 39.711039 43.150331 46.559246 49.359567 51.435373 52.868425 53.684237 53.857294 53.305837 52.145786 50.955358 49.764931 48.574504 47.384077 46.193649 45.003222 43.812795 42.622367 41.431940 40.256349 39.125799 38.035099 36.981167 35.964001 34.986686 34.054411 33.136973 32.219535 31.302097 30.384659 29.467221 28.549783 27.632345 26.714907 25.797469 24.880031 23.962593 23.045155 22.127717 
-25.743333 -22.993515 -20.243697 -17.493879 -14.744061 -11.994242 -9.244424 -6.494606 -3.744788 -0.994970 1.754848 4.504667 7.254485 10.004303 12.526586 13.954800 14.357590 13.819994 12.342012 9.838606 6.241131 2.416121 -1.408889 -5.233899 -9.058909 -12.883919 -16.708929 -20.533939 -24.358949 -28.183960 -32.002644 -34.946818 -36.585949 -37.077583 -36.470616 -34.716152 -31.656644 -27.722626 -23.782283 -19.841939 -15.901596 -11.961253 -8.020909 -4.080566 -0.140222 3.800121 7.740465 11.623858 15.233417 18.586322 21.703857 24.586023 27.211535 29.563212 31.857939 34.152667 36.447394 38.742121 41.036848 43.331576 45.626303 47.921030 50.215758 52.507564 54.395530 55.680841 56.436250 56.684336 56.402520 55.518048 54.229737 52.938505 51.647273 50.356040 49.064808 47.773576 46.482343 45.191111 43.899879 42.608646 41.329863 40.110937 38.948114 37.836740 36.776816 35.772994 34.829030 33.897515 32.966000 32.034485 31.102970 30.171455 29.239939 28.308424 27.376909 26.445394 25.513879 24.582364 23.650848 22.719333 
-28.402374 -25.447863 -22.493353 -19.538842 -16.584331 -13.629821 -10.675310 -7.720800 -4.766289 -1.811779 1.142732 4.097242 7.051753 10.006264 12.875943 14.757609 15.563337 15.391736 14.242805 12.017937 8.805055 5.507343 2.209630 -1.088083 -4.385796 -7.683509 -10.981222 -14.278935 -17.576648 -20.874361 -24.172073 -26.863245 -28.085138 -28.016424 -26.718041 -24.129053 -20.070784 -15.405975 -10.741166 -6.076356 -1.411547 3.253262 7.918072 12.582881 17.247690 21.912500 26.577309 31.194431 35.256148 38.713033 41.620520 43.978607 45.731863 46.929713 48.079877 49.230040 50.380204 51.530367 52.680531 53.830694 54.980858 56.131021 57.281185 58.431348 59.387861 59.875275 59.950637 59.633401 58.904113 57.705726 56.313689 54.921652 53.529614 52.137577 50.745540 49.353502 47.961465 46.569428 45.177390 43.785353 42.399373 41.083943 39.845341 38.676526 37.577499 36.555299 35.603649 34.658057 33.712465 32.766872 31.821280 30.875688 29.930096 28.984503 28.038911 27.093319 26.147726 25.202134 24.256542 23.310949 
-31.061414 -27.902211 -24.743008 -21.583805 -18.424602 -15.265399 -12.106203 -8.948970 -5.792485 -2.633180 0.529391 3.689818 6.849021 10.008224 13.165684 15.587856 16.834270 17.028664 16.171037 14.137652 11.368979 8.598564 5.828148 3.057732 0.287317 -2.483099 -5.253515 -8.023930 -10.794346 -13.564762 -16.335177 -18.816605 -19.730595 -19.134907 -17.111735 -13.578886 -8.478599 -3.089324 2.299952 7.689227 13.078502 18.467777 23.857052 29.246328 34.635603 40.024878 45.414153 50.801845 55.521948 59.174547 61.871984 63.614261 64.289032 64.296215 64.301815 64.307414 64.313014 64.318613 64.324213 64.329813 64.335412 64.341012 64.346612 64.352211 64.304741 63.969428 63.356877 62.482185 61.330256 59.890483 58.397641 56.904798 55.411980 53.924677 52.436675 50.941731 49.442436 47.947744 46.454902 44.962059 43.469374 42.042803 40.721953 39.495697 38.364035 37.338094 36.378268 35.418599 34.458929 33.499260 32.539590 31.579921 30.620252 29.660582 28.700913 27.741243 26.781574 25.821904 24.862235 23.902566 
-33.720455 -30.356559 -26.992664 -23.628769 -20.265547 -16.911879 -13.569737 -10.232828 -6.892526 -3.540280 -0.169501 3.221729 6.625176 10.010185 13.374080 16.403339 18.155922 18.716310 18.084504 16.176022 13.932904 11.689785 9.443125 7.166874 4.888956 2.633692 0.409904 -1.791759 -4.012044 -6.255163 -8.498281 -10.708111 -11.516623 -10.454584 -7.646000 -2.966865 3.113587 9.227328 15.341069 21.393642 27.371668 33.390550 39.512575 45.744632 52.005410 58.137256 64.250997 70.364738 76.045626 80.075124 82.562513 83.507791 82.801680 81.662716 80.523752 79.369213 78.109692 76.884773 75.752977 74.694565 73.652106 72.551003 71.412039 70.273074 69.132299 67.915280 66.596488 65.182669 63.667076 62.075240 60.488358 58.948702 57.417856 55.868827 54.291546 52.684597 51.052128 49.403517 47.755588 46.138766 44.545118 42.988468 41.572964 40.289267 39.137377 38.126634 37.152887 36.179140 35.203525 34.213329 33.223974 32.246304 31.282574 30.327180 29.362915 28.389168 27.415421 26.441675 25.467928 24.494182 
-36.379495 -32.810907 -29.242320 -25.675273 -22.126613 -18.602411 -15.095306 -11.593910 -8.085739 -4.558398 -1.000467 2.597116 6.237964 9.912314 13.573634 17.111260 19.508978 20.435361 19.890409 18.212649 16.469432 14.606228 12.704843 10.818276 8.977233 7.202687 5.509347 3.904705 2.382765 0.905042 -0.661391 -2.377206 -3.398552 -2.001026 1.723834 7.867565 14.705761 21.242653 27.478513 33.662939 39.937676 46.402112 53.132166 60.181780 67.569324 75.234340 82.906642 89.926048 96.698556 101.515656 103.792995 103.530575 101.312746 98.862405 95.839898 92.877450 90.207295 87.855802 85.773803 83.880587 82.080498 80.269775 78.341087 76.193934 73.910410 71.674707 69.605580 67.696726 65.954449 64.319647 62.780168 61.238802 59.659858 58.031903 56.353278 54.626924 52.858555 51.056510 49.233151 47.409237 45.626830 43.931657 42.393773 41.052635 39.908243 38.915330 37.911151 36.841841 35.761738 34.698769 33.664678 32.664731 31.700723 30.771333 29.870223 28.979626 28.049267 27.061445 26.073622 25.085798 
-39.038535 -35.265255 -31.486360 -27.730775 -24.016925 -20.337682 -16.681769 -13.030711 -9.369813 -5.684515 -1.959943 1.818295 5.662638 9.580699 13.564160 17.540515 20.853033 22.145411 21.437800 20.080804 18.546835 16.984615 15.445526 13.958469 12.545278 11.225282 10.016851 8.937481 8.002123 7.217299 6.561033 5.897079 4.843708 6.195266 11.217857 18.603488 25.235276 31.547682 37.807527 44.154268 50.690887 57.507326 64.688579 72.317002 80.469655 89.205830 98.525539 108.214575 117.050031 123.547446 125.614737 123.251903 118.619537 113.266440 108.367554 104.094279 100.407350 97.210353 94.390273 91.829435 89.408375 87.005519 84.496061 81.752822 78.660420 75.267059 72.312906 70.043710 68.377063 66.885061 65.371956 63.793017 62.138183 60.411215 58.617097 56.762113 54.853465 52.897240 50.905560 48.892650 46.875851 44.915744 43.183301 41.784722 40.705927 39.596131 38.395324 37.203339 36.045046 34.928872 33.858442 32.835832 31.862593 30.939900 30.067957 29.243910 28.454911 27.648920 26.679315 25.677414 
-41.697576 -37.695606 -33.654246 -29.697335 -25.829070 -22.025522 -18.259656 -14.504441 -10.732784 -6.916625 -3.043564 0.890545 4.902764 9.010985 13.232633 17.576327 21.941616 23.608356 22.553957 21.320366 20.084162 18.879127 17.725949 16.642635 15.646979 14.757618 13.994742 13.380681 12.940368 12.701415 12.692549 12.933875 13.358804 14.097672 20.910673 27.525362 33.878168 40.182367 46.548114 53.066172 59.822177 66.902070 74.395529 82.398783 91.017096 100.366467 110.572267 121.754175 133.927635 145.622946 147.480187 139.604105 131.433019 124.381913 118.387515 113.286980 108.914689 105.115869 101.746687 98.671373 95.758629 92.877826 89.895044 86.669076 83.048585 78.883873 74.637435 72.641416 71.315224 69.896183 68.346309 66.675157 64.898341 63.031798 61.086407 59.058996 56.965280 54.819658 52.642273 50.453029 48.271300 46.112663 43.985631 42.524678 41.236680 39.874363 38.557079 37.293962 36.085517 34.931201 33.830845 32.785020 31.795168 30.863654 29.993780 29.189638 28.455411 27.791873 27.169761 26.269030 
-43.917788 -39.691138 -35.507363 -31.447821 -27.493627 -23.619040 -19.784344 -15.957681 -12.109969 -8.215266 -4.246938 -0.186066 3.957144 8.197913 12.555558 17.047275 21.629094 23.580425 22.820643 21.968396 21.128463 20.324815 19.575528 18.897674 18.308697 17.827177 17.473466 17.270321 17.243551 17.422607 17.840593 18.530893 19.494056 20.638632 27.681414 34.336653 40.820239 47.278244 53.807672 60.495134 67.424781 74.682221 82.357554 90.548238 99.362020 108.919862 119.358025 130.824829 143.441690 156.699379 158.443642 148.819065 140.018103 132.495313 126.081434 120.584916 115.829153 111.654255 107.913673 104.470032 101.190981 97.945075 94.597569 91.005983 87.015758 82.465105 77.934063 76.305940 74.956090 73.439952 71.758051 69.922484 67.972441 65.910598 63.731602 61.464237 59.136214 56.770179 54.374273 51.963006 49.555091 47.173211 44.791754 42.617906 41.179719 39.773759 38.424504 37.133334 35.898669 34.719191 33.594400 32.524735 31.511628 30.557551 29.666075 28.841897 28.090669 27.417640 26.816227 26.009576 
-45.479758 -41.239153 -37.166401 -33.090916 -29.083951 -25.145622 -21.259478 -17.392459 -13.499077 -9.555207 -5.536369 -1.417563 2.811507 7.119492 11.496302 15.860344 19.746246 21.788537 22.198446 22.028236 21.683841 21.324759 20.996860 20.725964 20.532766 20.436393 20.455720 20.609586 20.915730 21.386585 22.014476 22.707735 22.993861 25.178480 31.227222 39.066096 46.077591 52.846835 59.595663 66.449684 73.506958 80.856278 88.583918 96.776087 105.517701 114.883908 124.909944 135.476182 145.696169 153.031935 154.798440 150.997563 144.421760 137.631618 131.465272 125.999506 121.159578 116.832770 112.897492 109.231049 105.710709 102.212409 98.608851 94.769029 90.642697 86.465531 83.024659 80.765028 79.065024 77.339307 75.495382 73.508080 71.348203 69.004494 66.546651 64.002657 61.398686 58.755162 56.076898 53.364470 50.623379 47.804242 44.773353 42.302697 40.622622 39.303323 38.000048 36.723178 35.485872 34.294031 33.150214 32.056078 31.013142 30.022913 29.086462 28.202884 27.364141 26.533264 25.545162 24.473515 
-47.041727 -42.707678 -38.644937 -34.633786 -30.630271 -26.661592 -22.726773 -18.818229 -14.910779 -10.950086 -6.915372 -2.789274 1.442550 5.743673 10.003401 14.218463 17.621109 19.821573 20.887501 21.398056 21.707193 21.850604 21.966112 22.105696 22.297803 22.562973 22.916808 23.369281 23.919618 24.540652 25.127689 25.490756 26.296082 29.274889 34.426864 41.752322 49.500616 56.781851 63.825133 70.851613 77.993084 85.346454 92.989817 100.984119 109.362310 118.093890 126.976938 135.284434 143.056116 148.434200 150.225914 148.431258 144.243003 139.559676 134.392080 129.425943 124.825004 120.584969 116.640843 112.902813 109.269407 105.632561 101.880782 98.005182 94.188111 90.762567 87.845161 85.457692 83.626201 81.625045 79.540114 77.343697 74.943034 72.334567 69.553969 66.691041 63.762739 60.773112 57.741696 54.662457 51.480596 48.033100 44.810297 42.131960 39.947287 38.504476 37.269486 36.047622 34.834554 33.644826 32.488139 31.368958 30.289017 29.247617 28.240056 27.252328 26.243699 25.148210 24.042832 22.937455 
-48.603697 -44.198250 -40.102388 -36.095016 -32.122439 -28.162296 -24.212168 -20.278276 -16.358626 -12.418325 -8.408645 -4.323112 -0.167205 4.065404 8.326377 12.410614 15.606884 17.966864 19.511493 20.447798 21.176824 21.836205 22.429377 22.987835 23.555882 24.156976 24.801320 25.483601 26.170482 26.800577 27.420887 28.048082 29.727029 32.999698 37.755234 44.104492 51.505502 58.913397 66.298473 73.524635 80.713460 87.978513 95.385177 102.951535 110.620262 118.176553 125.584448 132.992342 139.871665 144.176105 145.993028 145.322434 142.076957 138.302908 134.528860 130.627149 126.643422 122.761933 119.015368 115.369509 111.757956 108.098115 104.403945 100.945462 97.809409 95.008494 92.444394 90.127886 88.135011 86.197584 83.956000 81.460780 78.767070 75.877255 72.787350 69.550040 66.233244 62.849401 59.404247 55.861515 52.119378 48.225503 44.851693 41.957759 39.481531 37.621854 36.282883 35.074068 33.916271 32.747085 31.585423 30.440770 29.315265 28.204339 27.093030 25.957828 24.818719 23.679611 22.540502 21.401394 
-50.165667 -45.699137 -41.569490 -37.556964 -33.593612 -29.647713 -25.712614 -21.788144 -17.876182 -13.976773 -10.027423 -5.999148 -1.879307 2.350017 6.657929 10.560097 13.721560 16.242037 18.139087 19.470906 20.551346 21.529906 22.454015 23.358195 24.262376 25.166556 26.070737 26.974917 27.879098 28.783278 29.687459 30.761591 33.003360 36.414456 40.928987 46.612845 53.464339 60.485786 67.507232 74.528679 81.550125 88.571572 95.593018 102.614465 109.635911 116.657358 123.678804 130.700251 136.565052 140.303070 142.145202 142.091448 139.910910 136.573728 133.236545 129.899363 126.562180 123.224998 119.887815 116.550633 113.213451 109.895306 106.780375 103.964476 101.432182 99.124568 96.865754 94.686565 92.637310 90.691886 88.415179 85.768589 82.829997 79.646839 76.239396 72.594966 68.824411 64.967602 61.010098 56.918468 52.605598 48.452616 44.874767 41.758353 39.051478 36.853083 35.294877 33.977995 32.766563 31.593724 30.420885 29.248046 28.075207 26.902368 25.729529 24.556690 23.383851 22.211011 21.038172 19.865333 
-51.727636 -47.203400 -43.041326 -39.021777 -35.062674 -31.128068 -27.208828 -23.302708 -19.410606 -15.535870 -11.643587 -7.657807 -3.564279 0.654547 4.960699 8.753641 11.954996 14.636784 16.814659 18.500346 19.924743 21.214352 22.446150 23.637675 24.825726 26.013776 27.201827 28.389878 29.577928 30.765979 31.954030 33.512455 36.090927 39.572677 43.913976 49.158553 55.423177 62.058175 68.693174 75.328172 81.963170 88.598169 95.233167 101.868165 108.503164 115.138162 121.773160 128.314098 133.386442 136.777340 138.644681 138.988465 137.650804 134.844548 131.944231 129.043915 126.143599 123.243283 120.342966 117.442650 114.542334 111.740278 109.210270 106.986439 105.002189 103.115103 101.148301 99.140732 97.128610 95.139296 92.804859 90.012114 86.862966 83.413768 79.682650 75.651716 71.385082 67.014079 62.524815 57.880045 53.050509 48.673637 44.862214 41.516990 38.591269 36.133329 34.330422 32.908209 31.608905 30.394970 29.188400 27.981830 26.775261 25.568691 24.362121 23.155552 21.948982 20.742412 19.535842 18.329273 
-53.289606 -48.706459 -44.513010 -40.485932 -36.529804 -32.606125 -28.702483 -24.814650 -20.942971 -17.089598 -13.242157 -9.300593 -5.233806 -1.024331 3.238597 7.012372 10.292896 13.136659 15.558183 17.556738 19.303338 20.899174 22.432198 23.917155 25.389075 26.860996 28.332917 29.804838 31.276759 32.748680 34.221705 36.204307 39.004406 42.521631 46.724877 51.645249 57.383119 63.630565 69.879115 76.127665 82.376215 88.624765 94.873316 101.121866 107.370416 113.618966 119.867517 125.852029 130.391603 133.549365 135.441915 136.069254 135.314780 133.115367 130.651917 128.188467 125.725017 123.261567 120.798117 118.334667 115.878930 113.616125 111.650946 109.971486 108.495576 107.000388 105.327602 103.515968 101.592542 99.571225 97.168451 94.226976 90.861566 87.137164 83.067683 78.649907 73.903573 69.007027 63.978658 58.779515 53.508214 48.862591 44.796334 41.216641 38.078981 35.408553 33.389439 31.850605 30.467072 29.196215 27.955915 26.715615 25.475314 24.235014 22.994714 21.754413 20.514113 19.273813 18.033512 16.793212 
-54.851576 -50.204627 -45.979887 -41.945299 -37.993531 -34.082197 -30.195694 -26.327982 -22.478803 -18.649213 -14.836688 -10.939630 -6.898209 -2.694849 1.531375 5.338091 8.720977 11.727187 14.370576 16.649507 18.696218 20.590597 22.417824 24.196634 25.952425 27.708216 29.464008 31.219799 32.975590 34.731381 36.508622 38.814823 41.771281 45.303778 49.389174 54.050610 59.362301 65.202954 71.065056 76.927158 82.789260 88.651362 94.513464 100.375567 106.237669 112.099771 117.961873 123.423627 127.578864 130.569781 132.487540 133.332141 133.012423 131.386187 129.359603 127.333020 125.306436 123.279852 121.253268 119.226684 117.235264 115.495098 114.071245 112.901128 111.904783 110.803105 109.436319 107.842788 106.042747 104.024427 101.545799 98.452397 94.862978 90.849751 86.430162 81.613226 76.398011 70.964892 65.389952 59.634095 53.947029 48.996307 44.657466 40.838678 37.495315 34.643674 32.449564 30.793470 29.331918 27.997461 26.723430 25.449399 24.175368 22.901337 21.627306 20.353275 19.079244 17.805213 16.531182 15.257152 
-56.413545 -51.694267 -47.437111 -43.396103 -39.451435 -35.555436 -31.689256 -27.845144 -24.022094 -20.220399 -16.439789 -12.586047 -8.566661 -4.363795 -0.146520 3.725922 7.225901 10.394745 13.245957 15.781350 18.109669 20.291958 22.406681 24.475492 26.515775 28.555437 30.595098 32.634759 34.674421 36.714082 38.793790 41.348893 44.422439 47.957951 51.937754 56.379523 61.339736 66.775343 72.250997 77.726651 83.202305 88.677959 94.153613 99.629267 105.104921 110.580575 116.056229 121.063733 124.926263 127.791799 129.734768 130.755168 130.778574 129.657007 128.067289 126.477572 124.887854 123.298137 121.708419 120.118702 118.595008 117.356357 116.447892 115.766357 115.233904 114.544180 113.504503 112.153304 110.505078 108.525156 105.975357 102.727259 98.904700 94.587634 89.804018 84.570415 78.880677 72.898993 66.768738 60.451900 54.340033 49.050520 44.423054 40.362196 36.821165 33.815082 31.485408 29.727380 28.195400 26.800565 25.490945 24.183184 22.875422 21.567661 20.259899 18.952137 17.644376 16.336614 15.028853 13.721091 
-57.975515 -53.171149 -48.879061 -44.833583 -40.900207 -37.024247 -33.183386 -29.368122 -25.576701 -21.808962 -18.064335 -14.250635 -10.247499 -6.036417 -1.791339 2.168658 5.795412 9.126633 12.175704 14.950667 17.545151 20.004312 22.400470 24.754316 27.079125 29.402657 31.726188 34.049720 36.373251 38.696783 41.063640 43.822627 46.989340 50.520361 54.402077 58.648102 63.301852 68.347733 73.436938 78.526144 83.615350 88.704556 93.793762 98.882968 103.972174 109.061380 114.150585 118.774801 122.404057 125.171339 127.139516 128.308589 128.615687 127.927827 126.774975 125.622124 124.469273 123.316421 122.163570 121.010719 119.945230 119.185073 118.766975 118.563064 118.483948 118.240390 117.559466 116.480352 115.012186 113.103189 110.496985 107.092558 103.026538 98.389015 93.221962 87.547185 81.358557 74.814946 68.118510 61.233981 54.660541 48.997852 44.066793 39.763545 36.036975 32.906381 30.479999 28.644733 27.051116 25.604389 24.258461 22.916968 21.575476 20.233984 18.892492 17.550999 16.209507 14.868015 13.526523 12.185030 
-59.537485 -54.629737 -50.298554 -46.251317 -42.335340 -38.486337 -34.678124 -30.899300 -27.147455 -23.422327 -19.723279 -15.944393 -11.948335 -7.715989 -3.404058 0.658464 4.418209 7.910843 11.149804 14.152849 17.000588 19.726901 22.399283 25.033922 27.642475 30.249877 32.857278 35.464680 38.072082 40.679484 43.319710 46.257026 49.503247 53.025478 56.813406 60.877345 65.250189 69.920122 74.622880 79.325637 84.028395 88.731153 93.433911 98.136669 102.839426 107.542184 112.244942 116.544040 119.979413 122.666503 124.659890 125.959572 126.510972 126.198646 125.482661 124.766676 124.050691 123.334706 122.618721 121.902736 121.278140 120.971552 121.019330 121.288884 121.656225 121.901470 121.624904 120.857252 119.602193 117.797714 115.155041 111.594405 107.273260 102.294425 96.716617 90.566120 83.836137 76.713146 69.436610 61.974568 54.879748 48.806250 43.557709 39.016071 35.123127 31.906276 29.423453 27.539384 25.894311 24.405980 23.025976 21.650753 20.275530 18.900307 17.525084 16.149861 14.774638 13.399415 12.024193 10.648970 
-61.099455 -56.062145 -51.685638 -47.640004 -43.750423 -39.938517 -36.173631 -32.442269 -28.741480 -25.071416 -21.431727 -17.678893 -13.675709 -9.402533 -4.987494 -0.812412 3.083665 6.735586 10.156996 13.380895 16.471104 19.457478 22.401920 25.314103 28.205825 31.097097 33.988369 36.879641 39.770913 42.662185 45.570066 48.675111 51.995174 55.506833 59.202756 63.090274 67.192811 71.492511 75.808821 80.125131 84.441440 88.757750 93.074060 97.390369 101.706679 106.022988 110.339298 114.351116 117.618224 120.236872 122.255468 123.674010 124.444093 124.469466 124.190347 123.911228 123.632109 123.352991 123.073872 122.794753 122.591360 122.710875 123.195436 123.940336 124.756955 125.525115 125.718624 125.317394 124.319177 122.655874 120.002009 116.287781 111.698001 106.349671 100.321756 93.645799 86.313034 78.588353 70.713328 62.659665 54.965411 48.437433 42.859239 38.090322 34.061677 30.808033 28.313144 26.406533 24.722077 23.204775 21.793491 20.384537 18.975584 17.566630 16.157677 14.748723 13.339770 11.930816 10.521863 9.112909 
-62.661424 -57.456313 -53.025525 -48.985198 -45.135765 -41.376209 -37.670553 -34.003085 -30.370348 -26.773792 -23.208306 -19.466270 -15.433750 -11.089706 -6.544812 -2.251374 1.781339 5.588483 9.185625 12.625607 15.949362 19.192563 22.406220 25.594032 28.769175 31.944317 35.119459 38.294601 41.469743 44.644886 47.823970 51.100275 54.496094 57.997786 61.601097 65.310283 69.138981 73.064901 76.994762 80.924624 84.854485 88.784347 92.714208 96.644070 100.573931 104.503793 108.433654 112.172082 115.285776 117.842730 119.886535 121.417190 122.391105 122.740286 122.898033 123.055780 123.213528 123.371275 123.529023 123.686770 123.889008 124.403318 125.293281 126.509188 127.786864 129.087180 129.847310 129.892844 129.214859 127.733615 125.103142 121.241590 116.366820 110.610096 104.073380 96.797898 88.782501 80.428091 71.929235 63.263270 54.881491 47.845276 41.928510 36.955438 32.843770 29.610509 27.155869 25.242976 23.533983 22.003690 20.561006 19.118322 17.675638 16.232954 14.790269 13.347585 11.904901 10.462217 9.019533 7.576848 
-64.223394 -58.792449 -54.294648 -50.264146 -46.475624 -42.792439 -39.170702 -35.592715 -32.054296 -28.559869 -25.074308 -21.318224 -17.220459 -12.757336 -8.078248 -3.665474 0.500067 4.454994 8.226270 11.875463 15.426108 18.927717 22.409505 25.873512 29.332525 32.791537 36.250549 39.709562 43.168574 46.627587 50.086619 53.554655 57.037135 60.532287 64.039561 67.559506 71.093896 74.637290 78.180703 81.724117 85.267530 88.810944 92.354357 95.897770 99.441184 102.984597 106.528011 109.982054 112.947020 115.444277 117.513291 119.154061 120.327121 121.011105 121.605719 122.200333 122.794946 123.389560 123.984174 124.578787 125.184288 126.056022 127.315447 128.976456 130.739020 132.527726 133.994609 134.610185 134.351569 133.107395 130.542811 126.545975 121.365131 115.147472 108.010136 100.019510 91.233869 82.209057 73.049301 63.739058 54.589954 46.974388 40.716567 35.583537 31.476449 28.321560 25.969612 24.048005 22.333554 20.804936 19.328521 17.852106 16.375692 14.899277 13.422862 11.946447 10.470032 8.993618 7.517203 6.040788 
-65.785364 -60.035252 -55.452305 -51.443051 -47.742062 -44.175666 -40.678587 -37.232223 -33.831685 -30.486841 -27.055483 -23.242179 -19.017690 -14.357242 -9.587427 -5.061748 -0.774051 3.315441 7.263455 11.116126 14.896495 18.658037 22.409412 26.152992 29.895874 33.638757 37.381640 41.124522 44.867405 48.610288 52.353170 56.056212 59.649530 63.145684 66.549378 69.855908 73.052714 76.209679 79.366645 82.523610 85.680575 88.837540 91.994506 95.151471 98.308436 101.465402 104.622367 107.758366 110.567005 113.000838 115.095061 116.849672 118.229479 119.281925 120.313405 121.344885 122.376365 123.407845 124.439325 125.470804 126.502284 127.686985 129.271683 131.300997 133.589889 135.875768 138.092567 139.478720 139.807122 138.911414 136.433436 132.323574 126.807139 120.055431 112.171638 103.273161 93.646906 83.889286 74.009792 64.002584 54.059124 45.760157 39.171902 33.962594 29.965647 26.966178 24.739998 22.825562 21.131433 19.606182 18.096036 16.585891 15.075745 13.565600 12.055455 10.545309 9.035164 7.525018 6.014873 4.504727 
-67.347333 -61.114435 -56.420488 -52.457544 -48.880723 -45.504553 -42.205468 -38.965779 -35.783442 -32.649662 -29.179762 -25.228405 -20.762153 -15.881723 -11.065434 -6.448409 -2.062794 2.153864 6.277298 10.329511 14.353893 18.379339 22.405719 26.432471 30.459224 34.485977 38.512730 42.539483 46.566236 50.592989 54.619741 58.611593 62.363660 65.875595 69.160930 72.206133 75.011552 77.782069 80.552586 83.323103 86.093620 88.864137 91.634655 94.405172 97.175689 99.946206 102.716723 105.487240 108.112357 110.470118 112.589550 114.470652 116.084399 117.552745 119.021091 120.489437 121.957783 123.426129 124.894475 126.362822 127.831168 129.333976 131.185720 133.492893 136.278892 139.133596 141.978805 144.455184 145.683558 145.323539 142.932986 138.747878 132.849852 125.440225 116.589616 106.482623 95.986509 85.389563 74.685930 63.923511 53.294676 44.135270 37.255152 32.120619 28.336669 25.604857 23.462855 21.589243 19.951304 18.407428 16.863552 15.319675 13.775799 12.231923 10.688047 9.144171 7.600295 6.056419 4.512543 2.968667 
-68.909303 -61.865569 -57.025349 -53.171462 -49.807543 -46.732707 -43.782017 -40.901571 -38.107073 -35.094898 -31.464185 -27.203847 -22.295664 -17.314558 -12.478881 -7.839232 -3.400990 0.947049 5.240967 9.507920 13.791832 18.091283 22.382290 26.645617 30.908746 35.194671 39.518627 43.881776 48.255342 52.575690 56.886313 61.194982 65.205126 68.762917 71.899819 74.584366 76.970389 79.354458 81.727864 84.040696 86.360925 88.723106 91.130400 93.569611 96.015307 98.427010 100.811080 103.195149 105.556582 107.807748 109.952389 111.990504 113.918352 115.823564 117.728777 119.596138 121.414519 123.239449 125.108501 127.042821 129.039749 131.049469 133.111001 135.617779 138.676297 142.203756 145.745932 149.321192 152.126653 152.613478 150.401238 146.075119 139.712571 131.408877 121.216263 109.755924 98.188280 86.540925 74.815751 63.289029 52.130591 42.065556 34.988206 30.086280 26.667572 24.222398 22.156360 20.374459 18.799484 17.251240 15.699815 14.133154 12.545058 10.937096 9.325693 7.743033 6.165426 4.587820 3.010213 1.432606 
-70.471273 -62.085562 -56.770261 -53.225090 -50.320904 -47.781053 -45.509850 -43.371971 -41.097849 -37.930857 -33.843156 -28.848976 -23.636543 -18.605271 -13.796582 -9.260237 -4.808068 -0.347410 4.125420 8.648788 13.174812 17.644970 22.071201 26.485216 30.919646 35.404736 39.967828 44.631158 49.405524 54.272243 59.124469 63.747377 68.178603 71.853013 74.770717 76.931606 78.899413 80.620396 82.312196 84.090049 85.980171 87.978687 90.069706 92.231396 94.437366 96.654836 98.837357 100.903057 102.901328 104.968277 107.138126 109.410877 111.752306 114.006231 116.098359 118.130905 120.169133 122.262966 124.454585 126.780045 129.266755 131.924088 134.715825 137.713222 140.900674 144.789424 149.315046 154.088871 159.121357 161.130213 159.421127 154.814387 147.690532 137.926142 125.968034 113.270090 100.112498 86.898119 74.015345 61.729399 50.198839 39.739276 32.433134 27.959717 25.070673 22.788495 20.910985 19.353766 17.847184 16.334755 14.800992 13.233495 11.622048 9.959254 8.243404 6.487014 4.744666 3.119220 1.507883 -0.103455 
-72.033242 -61.663036 -54.786645 -51.182031 -49.686418 -48.633071 -48.025007 -47.269070 -44.954561 -41.118179 -35.722017 -30.065031 -24.717758 -19.709504 -15.054061 -10.620667 -6.341733 -1.795507 2.936118 7.661996 12.314915 16.891795 21.428274 25.961622 30.527412 35.160405 39.895195 44.766340 49.807297 55.045874 60.487539 66.042167 71.175789 75.197162 77.665326 79.013436 79.910275 80.897922 82.075878 83.447167 84.991939 86.684410 88.497591 90.404458 92.377740 94.388769 96.404671 98.379977 100.216666 101.915799 104.110857 106.800917 109.299567 111.594604 113.807857 116.005904 118.241084 120.560578 123.009725 125.633529 128.476940 131.583124 134.986334 138.686206 142.771713 146.910097 151.955798 159.467820 166.784677 170.680291 170.800337 166.055101 157.069702 144.817945 131.385710 116.889496 101.302609 85.808423 71.569022 58.692615 47.351846 37.403593 29.787532 25.971311 23.410643 21.531494 20.032287 18.580212 17.125043 15.651330 14.145649 12.595250 10.987499 9.309778 7.550042 5.699052 3.758386 1.775210 0.005553 -1.639515 
-73.595212 -62.447939 -51.300667 -44.237379 -43.828129 -49.601030 -54.216833 -54.027841 -49.479589 -42.917047 -36.739324 -30.978049 -25.651667 -20.640480 -16.091593 -12.010766 -8.006341 -3.388783 1.610527 6.471964 11.209286 15.867877 20.488864 25.110626 29.770155 34.504289 39.350878 44.349947 49.544878 54.983524 60.718709 66.804871 73.260477 78.854381 79.636735 79.516411 79.733518 80.280149 81.111253 82.182632 83.454612 84.891835 86.462406 88.136957 89.887749 91.687757 93.509646 95.324273 97.096722 98.746797 100.965602 103.681899 106.185757 108.584313 110.936055 113.291427 115.697645 118.200912 120.848089 123.688207 126.773984 130.163360 133.920938 138.118445 142.829290 148.089286 153.552115 164.228962 176.016356 183.530733 184.083082 178.167131 169.079221 155.465106 137.744487 118.216223 99.911945 82.932255 67.335818 53.654500 42.960052 35.289693 28.112966 23.868186 22.223060 20.807313 19.410059 18.014988 16.608541 15.177998 13.710769 12.193907 10.613688 8.955188 7.201843 5.335056 3.334097 1.177850 -1.137237 -3.175576 
-74.369758 -63.222485 -52.720427 -47.317151 -46.645776 -50.705818 -53.739479 -53.490390 -50.247521 -44.279631 -38.342433 -32.630653 -27.252825 -22.330010 -17.739388 -13.530055 -9.525630 -4.852690 0.157353 5.076344 9.872313 14.589405 19.268599 23.948146 28.664879 33.455408 38.357227 43.409764 48.655322 54.139588 59.910294 66.006519 72.369135 77.427877 78.589660 78.410679 78.466004 78.825329 79.458957 80.327759 81.394206 82.623981 83.985720 85.450315 86.990079 88.577813 90.185594 91.782551 93.327196 94.679543 96.855470 99.803365 102.468724 105.018491 107.517719 110.018550 112.568738 115.214587 118.002786 120.981928 124.203882 127.724985 131.606557 135.912582 140.693047 146.003036 151.320550 161.514339 172.626654 178.404183 179.230790 174.590008 164.254354 151.036677 135.190672 117.171992 99.718154 82.951578 67.336363 54.226006 43.261917 34.761291 27.584564 23.574877 21.726409 20.346194 18.993952 17.645635 16.286836 14.904544 13.486080 12.018521 10.488262 8.880629 7.179549 5.367438 3.425962 1.341256 -0.853574 -2.647515 
-74.619354 -64.689028 -58.245447 -54.831028 -52.954270 -51.562533 -50.632646 -49.906862 -47.916636 -44.581064 -39.806044 -34.451382 -29.302402 -24.370664 -19.698538 -15.243336 -10.874644 -6.230171 -1.396432 3.481341 8.302058 13.054623 17.765778 22.472445 27.209727 32.011685 36.911801 41.942759 47.134599 52.508170 58.052361 63.625567 68.719966 72.573249 74.745708 75.674034 76.097308 76.527149 77.114567 77.879132 78.807882 79.878332 81.065178 82.342194 83.682258 85.056112 86.428916 87.749352 88.898782 90.116769 92.201988 95.154439 98.141690 100.892476 103.549073 106.183886 108.851097 111.598257 114.470200 117.510559 120.761619 124.261451 128.033773 132.058143 136.450081 140.816670 146.241943 153.154139 159.949293 163.636515 163.263188 158.721998 150.589739 139.230361 126.585842 112.999206 98.409475 83.784920 70.127192 57.480770 46.075954 35.986797 28.380561 24.563846 22.051542 20.196500 18.785695 17.473507 16.161110 14.832083 13.472706 12.070288 10.612568 9.087721 7.485257 5.799190 4.038915 2.275929 0.742196 -0.743374 
-74.868949 -66.798266 -61.656384 -58.095527 -55.235778 -52.802715 -50.670706 -48.670267 -46.677430 -43.925933 -40.324805 -35.856374 -30.954101 -26.144251 -21.450985 -16.912658 -12.355515 -7.724734 -3.047796 1.697363 6.485754 11.243513 15.961108 20.663891 25.383738 30.149673 34.987046 39.914658 44.936937 50.021956 55.030256 59.884367 64.423257 67.864246 70.248883 71.535620 72.507135 73.313519 74.027895 74.798121 75.663561 76.626516 77.674189 78.786176 79.936284 81.090497 82.198324 83.193886 84.180144 85.604994 87.599505 90.163676 93.166439 96.152811 98.987140 101.749080 104.507821 107.314179 110.209519 113.227435 116.390450 119.698416 123.100852 126.666003 130.497075 135.008064 139.835340 144.670812 149.391774 151.107030 149.526260 145.379253 138.970101 130.128615 119.090484 107.239493 95.033305 82.731802 70.540606 58.747806 47.472422 37.061487 29.907101 25.472613 22.678996 20.576344 18.870499 17.514005 16.244743 14.973212 13.683305 12.362698 11.001839 9.594789 8.142751 6.664450 5.229880 3.873507 2.517137 1.160768 
-75.118545 -68.279232 -63.538466 -59.833287 -56.690249 -53.896180 -51.247621 -48.691861 -46.238760 -43.674534 -40.518613 -36.745452 -32.309875 -27.657579 -23.053519 -18.495020 -13.919251 -9.337499 -4.754356 -0.163959 4.464753 9.127891 13.814732 18.482206 23.144060 27.821472 32.526552 37.254928 41.968579 46.660499 51.352420 56.029369 60.076105 63.281597 65.701615 67.280391 68.228952 69.162542 70.096132 71.005231 71.895578 72.810569 73.758389 74.728062 75.694301 76.631263 77.564853 78.498443 79.547841 81.039060 82.942862 85.259249 88.017457 90.891472 93.765488 96.634885 99.463203 102.285192 105.137364 108.037027 110.973606 113.883596 116.928121 120.389465 124.343016 128.576324 132.670492 136.579336 139.339322 139.919548 138.099884 134.382870 128.752339 121.325696 112.159492 101.686959 91.049512 80.288281 69.390954 58.526502 47.837220 38.161346 31.280153 26.523602 23.268253 21.065226 19.291053 17.814802 16.565381 15.353778 14.143759 12.923307 11.687257 10.439541 9.200755 7.973586 6.746417 5.519247 4.292078 3.064909 
-75.368141 -69.280141 -64.760648 -61.057300 -57.821719 -54.832990 -51.951198 -49.153308 -46.433170 -43.777744 -40.827647 -37.392411 -33.438580 -29.005829 -24.519823 -20.029713 -15.524271 -11.013006 -6.522761 -2.052325 2.420331 6.917652 11.436682 15.966418 20.496155 25.025892 29.555629 34.085366 38.615103 43.144840 47.674577 52.075608 55.778549 58.809125 61.203944 62.926398 63.950762 64.846420 65.742078 66.637736 67.533394 68.429052 69.324710 70.220368 71.116026 72.011684 72.907342 73.803540 74.927266 76.414821 78.227916 80.366551 82.869014 85.599006 88.329537 91.060069 93.790600 96.521132 99.251663 101.982195 104.712726 107.490281 110.588953 114.081844 117.939824 121.712654 125.325239 128.304662 129.944000 129.952553 128.139485 124.665945 119.598531 113.126110 105.321115 96.313891 86.813026 77.167242 67.365809 57.414815 47.424466 38.858404 32.353285 27.459998 23.938846 21.501923 19.741668 18.268584 17.046720 15.948737 14.850768 13.752800 12.654831 11.556862 10.458894 9.360925 8.262956 7.164988 6.067019 4.969051 
-75.617737 -70.022591 -65.690692 -62.036568 -58.772115 -55.685430 -52.699844 -49.790655 -46.943123 -44.148803 -41.291387 -38.049312 -34.382344 -30.253943 -25.895225 -21.519560 -17.128699 -12.722413 -8.328825 -3.970498 0.361770 4.702775 9.057700 13.423860 17.791414 22.158967 26.526520 30.894074 35.261627 39.629181 43.996734 48.096928 51.549473 54.433128 56.774753 58.547487 59.672572 60.530298 61.388024 62.245750 63.103476 63.961202 64.818928 65.676654 66.534380 67.392106 68.249832 69.131022 70.285489 71.737553 73.459940 75.452649 77.742955 80.306539 82.893587 85.480634 88.067682 90.654729 93.241777 95.828825 98.415872 101.156073 104.234930 107.688578 111.252008 114.676359 117.831354 120.026628 121.091414 120.831144 119.070061 115.797459 111.221990 105.499560 98.722309 90.969595 82.447889 73.736973 64.853598 55.774377 46.656760 39.065470 33.015008 28.200992 24.551329 21.941549 20.160750 18.738122 17.553459 16.560874 15.592105 14.623337 13.654569 12.685801 11.717033 10.748265 9.779496 8.810728 7.841960 6.873192 
-75.867333 -70.631762 -66.463204 -62.876725 -59.609273 -56.490814 -53.466137 -50.511338 -47.604836 -44.740269 -41.891140 -38.771252 -35.291001 -31.418129 -27.215819 -22.973173 -18.714773 -14.439304 -10.154620 -5.910665 -1.708199 2.481317 6.678042 10.881303 15.086673 19.292042 23.497412 27.702782 31.908152 36.113521 40.316133 44.137472 47.389831 50.141900 52.414995 54.187799 55.391624 56.214176 57.033970 57.853764 58.673558 59.493352 60.313145 61.132939 61.952733 62.772527 63.592321 64.468309 65.614496 67.013930 68.645609 70.509533 72.626703 75.014073 77.457636 79.901200 82.344764 84.788327 87.231891 89.675455 92.132884 94.821968 97.830048 101.145826 104.418521 107.563708 110.193161 111.901671 112.648276 112.288590 110.571672 107.538490 103.413399 98.329372 92.374110 85.590579 78.015366 70.144207 62.087481 53.813167 45.632455 38.845806 33.271523 28.694035 25.037283 22.360416 20.530820 19.191257 18.079094 17.173010 16.333442 15.493875 14.654307 13.814739 12.975172 12.135604 11.296036 10.456469 9.616901 8.777333 
-76.116929 -71.162676 -67.140122 -63.628411 -60.380336 -57.266529 -54.239075 -51.274715 -48.349587 -45.459310 -42.600778 -39.564057 -36.215582 -32.525358 -28.501482 -24.398085 -20.279314 -16.143177 -11.987332 -7.860952 -3.786566 0.254824 4.296190 8.338747 12.381932 16.425118 20.468304 24.511490 28.554676 32.597862 36.619650 40.212725 43.295428 45.925354 48.120476 49.862821 51.094794 51.898054 52.679916 53.461777 54.243639 55.025501 55.807363 56.589225 57.371087 58.152949 58.934811 59.799184 60.914049 62.250543 63.791514 65.536961 67.504038 69.721606 72.021686 74.321766 76.621845 78.921925 81.222005 83.522084 85.863874 88.461707 91.361930 94.477220 97.503787 100.370501 102.562175 103.955953 104.520501 104.141494 102.499367 99.725644 96.023024 91.507067 86.242134 80.258003 73.549758 66.460613 59.177216 51.660683 44.364227 38.277484 33.178843 28.904507 25.372260 22.702622 20.860254 19.614657 18.600716 17.785319 17.074779 16.364412 15.654045 14.943678 14.233311 13.522943 12.812576 12.102209 11.391842 10.681475 
-76.366525 -71.643550 -67.754495 -64.318720 -61.109557 -58.022186 -55.013954 -52.062350 -49.144006 -46.255482 -43.396360 -40.419716 -37.170227 -33.619194 -29.763055 -25.799766 -21.822741 -17.829379 -13.815909 -9.812240 -5.869679 -1.974128 1.912762 5.796125 9.677191 13.558193 17.439195 21.320198 25.201200 29.082203 32.923277 36.327038 39.260553 41.774723 43.885485 45.576902 46.798074 47.581931 48.325861 49.069791 49.813721 50.557651 51.301581 52.045511 52.789440 53.533370 54.277300 55.118047 56.186749 57.453579 58.903842 60.537538 62.369361 64.429140 66.585736 68.742331 70.898927 73.055523 75.212119 77.368714 79.588976 82.065024 84.828709 87.728544 90.538810 93.110283 94.993156 96.176808 96.637207 96.267890 94.746475 92.242761 88.941863 84.942697 80.286833 74.999022 69.070797 62.724808 56.180110 49.392538 42.890818 37.430151 32.796606 28.858439 25.545215 22.944033 21.153853 20.003782 19.107996 18.400672 17.816116 17.234950 16.653783 16.072616 15.491450 14.910283 14.329116 13.747950 13.166783 12.585616 
-76.616121 -72.090559 -68.326015 -64.968406 -61.810999 -58.763885 -55.788913 -52.865020 -49.970191 -47.101429 -44.257908 -41.326596 -38.155412 -34.716115 -31.006743 -27.181765 -23.346005 -19.496191 -15.628109 -11.757320 -7.951424 -4.202919 -0.470962 3.253387 6.972450 10.691268 14.410087 18.128906 21.847725 25.566543 29.237135 32.479836 35.279189 37.682320 39.704006 41.329469 42.511584 43.265809 43.971807 44.677805 45.383803 46.089801 46.795798 47.501796 48.207794 48.913792 49.619790 50.424036 51.436323 52.628803 53.988357 55.514987 57.221810 59.136673 61.149785 63.162897 65.176009 67.189121 69.202233 71.215344 73.300006 75.629973 78.232846 80.924269 83.538577 85.840594 87.499695 88.539874 88.942823 88.605543 87.232852 85.004248 82.088423 78.569287 74.470200 69.812166 64.588341 58.958015 53.127688 47.050038 41.253134 36.361762 32.178209 28.591106 25.539864 23.076041 21.391872 20.358660 19.597331 19.015161 18.557453 18.105487 17.653521 17.201555 16.749589 16.297622 15.845656 15.393690 14.941724 14.489758 
-76.865717 -72.513860 -68.867581 -65.590871 -62.493741 -59.496017 -56.563550 -53.677651 -50.817771 -47.981072 -45.166904 -42.272515 -39.166162 -35.820560 -32.235984 -28.546011 -24.849584 -21.142643 -17.420470 -13.690488 -10.027172 -6.429308 -2.853717 0.710764 4.267709 7.824344 11.380979 14.937614 18.494249 22.050884 25.563734 28.668089 31.345427 33.641343 35.570128 37.117491 38.237836 38.949687 39.617753 40.285819 40.953884 41.621950 42.290016 42.958082 43.626147 44.294213 44.962279 45.718647 46.666957 47.781619 49.050466 50.473498 52.062881 53.844207 55.713835 57.583463 59.453091 61.322718 63.192346 65.061974 66.995783 69.159493 71.580910 74.077648 76.509760 78.584356 80.077574 81.018182 81.392397 81.105191 79.896569 77.944721 75.399842 72.334396 68.756852 64.683656 60.108478 55.170852 50.036815 44.655941 39.488133 35.119660 31.369031 28.137653 25.371117 23.098685 21.567956 20.682063 20.069150 19.626290 19.298790 18.976025 18.653259 18.330493 18.007728 17.684962 17.362196 17.039430 16.716665 16.393899 
-77.115313 -72.920411 -69.388478 -66.195235 -63.164302 -60.222131 -57.338298 -54.497281 -51.680275 -48.884200 -46.108716 -43.245474 -40.195087 -36.931129 -33.452509 -29.893094 -26.333162 -22.767620 -19.191150 -15.607415 -12.093801 -8.651656 -5.234621 -1.831619 1.562967 4.957419 8.351870 11.746322 15.140773 18.535225 21.900709 24.887263 27.453556 29.645707 31.478141 32.936434 33.974464 34.633565 35.263699 35.893833 36.523966 37.154100 37.784234 38.414367 39.044501 39.674635 40.304768 41.004706 41.883060 42.917164 44.095303 45.417477 46.895401 48.551740 50.277884 52.004028 53.730172 55.456316 57.182460 58.908604 60.679787 62.659936 64.884518 67.195807 69.452489 71.346785 72.714624 73.585249 73.948497 73.723341 72.688017 71.012238 68.825856 66.194055 63.113441 59.593673 55.628920 51.366456 46.914728 42.221490 37.627773 33.742431 30.406939 27.530001 25.060619 23.017898 21.685312 20.978809 20.526698 20.235237 20.040127 19.846562 19.652997 19.459432 19.265867 19.072301 18.878736 18.685171 18.491606 18.298040 
-77.364909 -73.315483 -69.896140 -66.788411 -63.827913 -60.945395 -58.114102 -55.322000 -52.553227 -49.803638 -47.069310 -44.233537 -41.233397 -38.043118 -34.656913 -31.222515 -27.795523 -24.369480 -20.938313 -17.505219 -14.149865 -10.869095 -7.613408 -4.374041 -1.141774 2.090494 5.322762 8.555030 11.787298 15.019565 18.241454 21.131497 23.598003 25.689913 27.422472 28.780436 29.714862 30.317443 30.909645 31.501846 32.094048 32.686250 33.278451 33.870653 34.462855 35.055056 35.647258 36.285958 37.089202 38.040405 39.127836 40.351494 41.723113 43.259274 44.841934 46.424594 48.007254 49.589914 51.172574 52.755234 54.359106 56.140617 58.151832 60.282587 62.371051 64.123668 65.395105 66.215969 66.579039 66.420377 65.565626 64.163630 62.324539 60.108950 57.507534 54.518651 51.143606 47.541747 43.761178 39.749475 35.699637 32.261715 29.323365 26.796079 24.629915 22.844968 21.755206 21.255661 20.975581 20.845829 20.781464 20.717100 20.652735 20.588370 20.524006 20.459641 20.395276 20.330911 20.266547 20.202182 
-77.614505 -73.703617 -70.397319 -67.376347 -64.489275 -61.668855 -58.892188 -56.150272 -53.432923 -50.733449 -48.034489 -45.224336 -42.271010 -39.149424 -35.849465 -32.532937 -29.234537 -25.945876 -22.659891 -19.382820 -16.195991 -13.081713 -9.990629 -6.916599 -3.846515 -0.776430 2.293654 5.363738 8.433822 11.503906 14.573988 17.393120 19.773132 21.768926 23.397486 24.641828 25.447050 26.001321 26.555590 27.109860 27.664130 28.218399 28.772669 29.326938 29.881208 30.435478 30.989747 31.567017 32.290167 33.156248 34.152970 35.280336 36.550631 37.966807 39.405983 40.845160 42.284336 43.723512 45.162688 46.601864 48.044023 49.613954 51.395583 53.340365 55.265150 56.905482 58.101655 58.886643 59.255674 59.158992 58.492603 57.361101 55.859184 54.041805 51.906404 49.431833 46.642065 43.687528 40.568860 37.235040 33.728151 30.703780 28.144415 25.959928 24.099115 22.597676 21.797454 21.521635 21.423711 21.457966 21.522801 21.587637 21.652473 21.717309 21.782144 21.846980 21.911816 21.976652 22.041487 22.106323 
-77.864101 -74.089449 -70.899073 -67.965065 -65.153047 -62.395514 -59.673733 -56.981463 -54.315337 -51.667366 -48.989475 -46.204339 -43.296159 -40.240591 -37.031124 -33.822529 -30.647164 -27.493673 -24.353631 -21.241675 -18.235608 -15.290809 -12.367854 -9.459156 -6.551256 -3.643355 -0.735455 2.172446 5.080346 7.988247 10.896147 13.661145 15.972829 17.878068 19.397067 20.509621 21.168861 21.685199 22.201536 22.717874 23.234211 23.750549 24.266887 24.783224 25.299562 25.815899 26.332237 26.853676 27.491122 28.269650 29.175665 30.209167 31.383750 32.674341 33.970033 35.265725 36.561417 37.857110 39.152802 40.448494 41.744186 43.095928 44.634565 46.371621 48.129142 49.679454 50.816098 51.574672 51.952497 51.907820 51.434309 50.569641 49.395974 47.960812 46.276004 44.303205 42.107646 39.787567 37.322415 34.664656 31.736583 29.090997 26.891861 25.042122 23.486570 22.303333 21.842581 21.788585 21.881428 22.070102 22.264138 22.458175 22.652211 22.846247 23.040283 23.234320 23.428356 23.622392 23.816428 24.010465 
-78.113697 -74.478748 -71.409899 -68.563887 -65.824142 -63.128124 -60.459212 -57.814295 -55.194633 -52.588367 -49.917636 -47.157933 -44.294688 -41.304383 -38.205228 -35.089689 -32.029483 -29.008924 -26.017573 -23.087213 -20.272007 -17.499212 -14.747430 -12.001713 -9.255997 -6.510280 -3.764563 -1.018846 1.726871 4.472587 7.218304 9.917278 12.189543 14.012926 15.413665 16.365523 16.890671 17.369077 17.847482 18.325888 18.804293 19.282699 19.761104 20.239510 20.717915 21.196321 21.674726 22.153132 22.697975 23.385768 24.201074 25.143896 26.229666 27.381874 28.534083 29.686291 30.838499 31.990707 33.142916 34.295124 35.447332 36.606406 37.892040 39.380975 40.963709 42.430484 43.519672 44.258072 44.644874 44.651682 44.356255 43.755213 42.902461 41.838191 40.580781 39.111982 37.516398 35.816552 33.995755 32.012829 29.745853 27.443507 25.584012 24.060284 22.809158 22.004636 21.910010 22.071902 22.359002 22.682239 23.005475 23.328712 23.651949 23.975186 24.298422 24.621659 24.944896 25.268133 25.591369 25.914606 
-78.363293 -74.880303 -71.941294 -69.183412 -66.507623 -63.862919 -61.228652 -58.613043 -56.024371 -53.424029 -50.768595 -48.049416 -45.247182 -42.334053 -39.360597 -36.335096 -33.376828 -30.486963 -27.651858 -24.931423 -22.307981 -19.706017 -17.073438 -14.428070 -11.796889 -9.195203 -6.630485 -4.101258 -1.589984 0.956928 3.540461 6.123994 8.411642 10.169256 11.435649 12.172008 12.612481 13.052954 13.543074 14.091447 14.626877 15.116633 15.547164 15.918731 16.248964 16.589128 17.017216 17.457689 17.918322 18.510158 19.234756 20.092119 21.080684 22.089408 23.111759 24.233578 25.371883 26.467445 27.496024 28.452552 29.348983 30.223257 31.198039 32.393876 33.772736 35.141332 36.192964 36.914867 37.308004 37.368623 37.223516 36.952996 36.549367 35.942112 35.113594 34.126359 33.017880 31.815432 30.554020 29.229223 27.659575 25.782191 24.236551 23.029675 22.084004 21.769792 22.007460 22.386833 22.805472 23.216370 23.636743 24.076907 24.541929 25.030854 25.531906 26.008999 26.461436 26.913873 27.366310 27.818747 
-78.612889 -75.310234 -72.509905 -69.827546 -67.173267 -64.541380 -61.923973 -59.327227 -56.734729 -54.114522 -51.464452 -48.775569 -46.039623 -43.276906 -40.476882 -37.569648 -34.684451 -31.923016 -29.276276 -26.787695 -24.244668 -21.651483 -19.054633 -16.481717 -13.950357 -11.473705 -9.062297 -6.723792 -4.460247 -2.259585 -0.067630 2.283968 4.613609 6.342894 7.437500 7.931749 8.417696 9.117421 9.844094 10.522433 11.121164 11.624471 12.023291 12.313003 12.494768 12.582093 12.621443 12.767109 13.164788 13.649233 14.283124 15.066461 15.936826 17.078720 18.349673 19.584581 20.727338 21.755545 22.659718 23.436764 24.089060 24.628101 25.087097 25.603874 26.569851 27.791755 28.815640 29.522090 29.909941 30.157946 30.576363 30.894980 30.954715 30.736137 30.290619 29.697307 28.986890 28.170520 27.288579 26.353063 25.359165 24.137823 22.863742 21.964119 21.413936 21.663494 22.093759 22.556908 23.020658 23.500306 24.007749 24.551904 25.139929 25.777050 26.464715 27.194846 27.930975 28.559613 29.141251 29.722889 
-78.862485 -75.803139 -73.111801 -70.443413 -67.792046 -65.162001 -62.555898 -59.946796 -57.319676 -54.675616 -52.014822 -49.336020 -46.651669 -43.998368 -41.376873 -38.748663 -35.952019 -33.316502 -30.903286 -28.373527 -25.799940 -23.232185 -20.693856 -18.200031 -15.763329 -13.395844 -11.109911 -8.918329 -6.833983 -4.867950 -3.022528 -1.260588 0.703107 2.529654 3.326882 4.023987 5.003959 5.955605 6.818241 7.572715 8.209928 8.723207 9.105898 9.350623 9.449438 9.395329 9.187366 8.850078 8.535577 8.812294 9.355477 10.168434 11.608130 13.103363 14.489977 15.732678 16.822429 17.756727 18.534159 19.152702 19.609439 19.901418 20.028825 20.005702 19.928674 20.382002 21.366062 22.050560 22.931272 24.055137 24.979138 25.642713 26.029381 26.138398 26.031823 25.754888 25.351789 24.863404 24.298514 23.668534 23.008142 22.330567 21.482883 20.879429 21.002339 21.480169 21.979821 22.483438 23.006467 23.559134 24.150020 24.787352 25.479521 26.235227 27.063229 27.971070 28.960376 30.006185 30.916192 31.627030 
-79.112081 -76.372310 -73.699471 -71.033193 -68.379763 -65.735427 -63.091386 -60.443644 -57.784484 -55.113954 -52.432559 -49.754819 -47.111702 -44.515171 -41.976548 -39.510362 -37.122250 -34.648971 -32.090767 -29.531531 -26.993470 -24.487613 -22.024011 -19.612836 -17.264852 -14.991774 -12.806648 -10.724268 -8.761667 -6.938693 -5.278630 -3.808428 -2.554267 -1.274776 -0.085724 1.237835 2.425799 3.477777 4.397083 5.185285 5.841610 6.362846 6.743249 6.974369 7.044772 6.939646 6.640308 6.123853 5.364630 4.367796 4.823846 6.774982 8.534302 10.082942 11.434550 12.601177 13.591372 14.410161 15.059212 15.536904 15.838292 15.954919 15.874522 15.580710 15.053292 14.275583 13.820772 15.660362 17.579714 19.104384 20.270878 21.129983 21.734093 22.111547 22.266276 22.243574 22.089428 21.836433 21.503693 21.125063 20.730037 20.360964 20.057867 20.022217 20.552616 21.083045 21.626980 22.191989 22.784967 23.412876 24.083066 24.803521 25.583114 26.431898 27.361432 28.385176 29.518911 30.780898 32.188890 33.531172 
-79.497855 -76.868825 -74.233301 -71.559017 -68.876866 -66.192772 -63.507436 -60.820038 -58.129056 -55.430678 -52.740950 -50.073892 -47.439490 -44.847543 -42.305947 -39.811326 -37.285455 -34.936564 -32.699641 -30.278082 -27.845029 -25.433032 -23.057866 -20.731770 -18.466288 -16.273294 -14.165530 -12.156945 -10.262814 -8.499280 -6.880784 -5.407433 -3.969264 -2.250941 -1.544934 -0.480586 0.629589 1.648996 2.554167 3.337950 3.996060 4.523821 4.915104 5.161915 5.254299 5.180739 4.930043 4.499235 3.936734 3.784871 4.193842 5.179939 6.621343 7.963387 9.145654 10.160313 11.008497 11.692051 12.211338 12.564569 12.747656 12.754472 12.578011 12.214695 11.683492 11.166616 11.506869 12.206703 13.768903 15.241049 16.450242 17.396821 18.108027 18.615738 18.951030 19.126533 19.158435 19.077830 18.918814 18.715505 18.503018 18.319311 18.347689 19.003520 19.769082 20.411273 21.045209 21.692791 22.364724 23.069345 23.814522 24.608341 25.459469 26.377386 27.372463 28.455662 29.636799 30.916028 32.219272 33.154053 
-79.917673 -77.243351 -74.573140 -71.903540 -69.218332 -66.517696 -63.806284 -61.089926 -58.374765 -55.666986 -52.972667 -50.297567 -47.646563 -45.022046 -42.418688 -39.801892 -37.205400 -34.841870 -32.712258 -30.599054 -28.345941 -26.061972 -23.790004 -21.551890 -19.362809 -17.235389 -15.181024 -13.209848 -11.329149 -9.538085 -7.810074 -6.017804 -3.999483 -2.458227 -1.534382 -1.086490 -0.362052 0.484052 1.300712 2.040134 2.681840 3.214447 3.630064 3.922745 4.089252 4.133146 4.077800 4.013738 4.264255 4.667937 5.045206 5.396060 5.908787 6.767550 7.639281 8.422718 9.084708 9.612509 10.000542 10.246234 10.349403 10.314552 10.158837 9.938290 9.858167 10.187474 10.549508 10.935516 11.519602 12.535249 13.548539 14.427584 15.142434 15.694143 16.094847 16.361129 16.511851 16.568035 16.554536 16.505160 16.478530 16.620423 17.084669 17.741577 18.587428 19.454944 20.228702 20.981508 21.742103 22.525223 23.341145 24.198443 25.104864 26.067306 27.090750 28.174698 29.301294 30.384747 31.298672 32.206618 
-80.337491 -77.627334 -74.917177 -72.207642 -69.495962 -66.775943 -64.048493 -61.317314 -58.587017 -55.862358 -53.147743 -50.446567 -47.759857 -45.082866 -42.395269 -39.695094 -37.143491 -34.765323 -32.560593 -30.504456 -28.456458 -26.345108 -24.195996 -22.050995 -19.932766 -17.855580 -15.828308 -13.853685 -11.923270 -10.002160 -7.996509 -5.950332 -4.062346 -2.604959 -1.551987 -0.929614 -0.465432 0.050308 0.687420 1.334223 1.937358 2.471996 2.926690 3.299451 3.600265 3.862779 4.180842 4.640568 5.101191 5.508724 5.854289 6.137888 6.368395 6.600142 6.987943 7.445327 7.868974 8.216873 8.471655 8.629175 8.696941 8.700576 8.706029 8.864837 9.091786 9.334505 9.620149 9.946107 10.314991 10.761930 11.437186 12.137681 12.765783 13.289441 13.703460 14.015381 14.240327 14.400202 14.526653 14.670738 14.930934 15.323679 15.838871 16.496856 17.297633 18.220750 19.150848 20.038488 20.900720 21.765605 22.648389 23.558715 24.502602 25.481947 26.491113 27.506621 28.465234 29.396550 30.327867 31.259184 
-80.757309 -78.011317 -75.265324 -72.519332 -69.773339 -67.026133 -64.275508 -61.522538 -58.769891 -56.020497 -53.276621 -50.538668 -47.802908 -45.059408 -42.313415 -39.618625 -37.081776 -34.688971 -32.440211 -30.349392 -28.309775 -26.270158 -24.230541 -22.186486 -20.134784 -18.090943 -16.059868 -14.032057 -11.992840 -9.953223 -7.913606 -5.886884 -4.129942 -2.699317 -1.574325 -0.775650 -0.246756 0.269244 0.785244 1.301823 1.836131 2.367648 2.878676 3.373759 3.881244 4.397244 4.913244 5.429244 5.915940 6.312243 6.626106 6.857528 6.998558 7.110284 7.222009 7.333735 7.455249 7.591790 7.710292 7.803883 7.893091 8.004088 8.115813 8.227539 8.341394 8.499819 8.712154 8.974981 9.291717 9.653023 10.016554 10.451489 10.929407 11.379042 11.773853 12.110110 12.398370 12.661823 12.940514 13.287382 13.650818 14.057112 14.595605 15.254666 16.034297 16.946126 17.900814 18.855501 19.810189 20.761897 21.708463 22.660304 23.620728 24.583356 25.538313 26.493000 27.447687 28.402375 29.357062 30.311749 
-81.177127 -78.395300 -75.613472 -72.831644 -70.049816 -67.267989 -64.486161 -61.704328 -58.922319 -56.140555 -53.358850 -50.577022 -47.795194 -45.013367 -42.232733 -39.552532 -37.016040 -34.608598 -32.330205 -30.195522 -28.161271 -26.128214 -24.095158 -22.062101 -20.029044 -17.995987 -15.962931 -13.929874 -11.896817 -9.863760 -7.830704 -5.861192 -4.173204 -2.748204 -1.572329 -0.659442 -0.028079 0.539739 1.107558 1.675376 2.243194 2.811012 3.378830 3.946648 4.514467 5.082285 5.650103 6.217010 6.707287 7.087912 7.370072 7.553766 7.627810 7.625223 7.621725 7.618226 7.614728 7.611230 7.607731 7.604233 7.600735 7.597237 7.593738 7.590240 7.601735 7.679655 7.819625 8.018375 8.279177 8.606402 8.948621 9.290840 9.633059 9.975383 10.320401 10.661200 11.001935 11.344154 11.686372 12.028591 12.371824 12.800342 13.350894 14.011033 14.780758 15.672517 16.649561 17.627619 18.605677 19.583735 20.561793 21.539851 22.517909 23.495967 24.474025 25.452083 26.430141 27.408199 28.386257 29.364315 
-81.596945 -78.779282 -75.961619 -73.143956 -70.326293 -67.508630 -64.690967 -61.873304 -59.055641 -56.237978 -53.420315 -50.602652 -47.784989 -44.967326 -42.163547 -39.487199 -36.943947 -34.521867 -32.220959 -30.053148 -28.012767 -25.986270 -23.959774 -21.933277 -19.906781 -17.880284 -15.853787 -13.827291 -11.800794 -9.774298 -7.747801 -5.839798 -4.187036 -2.757503 -1.540903 -0.547532 0.190598 0.810234 1.429871 2.049507 2.669143 3.288780 3.908416 4.528053 5.147689 5.767325 6.386962 6.993640 7.481394 7.844936 8.095393 8.232766 8.245926 8.140162 8.021440 7.902718 7.783996 7.665274 7.546552 7.427830 7.309108 7.190386 7.071664 6.952942 6.871256 6.869347 6.937210 7.071627 7.275816 7.559781 7.880783 8.201785 8.522787 8.843789 9.164791 9.485793 9.806795 10.127797 10.448799 10.769800 11.102743 11.545280 12.102284 12.763499 13.528926 14.408820 15.398308 16.399736 17.401165 18.402594 19.404022 20.405451 21.406880 22.408309 23.409737 24.411166 25.412595 26.414023 27.415452 28.416881 
-82.016764 -79.163265 -76.309767 -73.456269 -70.602770 -67.749272 -64.895773 -62.042275 -59.188777 -56.335278 -53.481780 -50.628281 -47.774783 -44.921285 -42.100163 -39.417897 -36.863627 -34.426910 -32.107744 -29.916576 -27.864263 -25.844326 -23.824390 -21.804453 -19.784517 -17.764581 -15.744644 -13.724708 -11.704771 -9.684835 -7.667151 -5.808170 -4.172039 -2.732276 -1.480648 -0.425388 0.407022 1.080729 1.752184 2.423638 3.095093 3.766547 4.438002 5.109457 5.780911 6.452366 7.123820 7.760108 8.245573 8.592010 8.810765 8.901836 8.853880 8.655101 8.421155 8.187209 7.953264 7.719318 7.485372 7.251426 7.017481 6.783535 6.549589 6.316535 6.146296 6.064261 6.059948 6.130100 6.277974 6.514052 6.812946 7.112730 7.412515 7.712300 8.012085 8.311870 8.611655 8.911440 9.211225 9.511009 9.838955 10.287674 10.847722 11.510014 12.274550 13.150415 14.147054 15.171854 16.196653 17.221453 18.246252 19.271051 20.295851 21.320650 22.345450 23.370249 24.395048 25.419848 26.444647 27.469446 
-82.436582 -79.547248 -76.657914 -73.768581 -70.879247 -67.989913 -65.100580 -62.211246 -59.321912 -56.432579 -53.543245 -50.653911 -47.764577 -44.875244 -42.036468 -39.341598 -36.773333 -34.321978 -31.987533 -29.779693 -27.715759 -25.702382 -23.689006 -21.675630 -19.662253 -17.648877 -15.635501 -13.622125 -11.608748 -9.595372 -7.592193 -5.761467 -4.130481 -2.676925 -1.393832 -0.288169 0.617754 1.351224 2.074497 2.797770 3.521042 4.244315 4.967588 5.690861 6.414133 7.137406 7.860679 8.522053 9.007242 9.337427 9.524479 9.568397 9.457312 9.170040 8.820871 8.471701 8.122531 7.773362 7.424192 7.075023 6.725853 6.376684 6.027514 5.683307 5.423011 5.259905 5.183132 5.189303 5.281808 5.471502 5.745108 6.023676 6.302244 6.580811 6.859379 7.137947 7.416515 7.695083 7.973651 8.252219 8.575205 9.024626 9.585280 10.248649 11.014733 11.892050 12.895801 13.943971 14.992141 16.040311 17.088482 18.136652 19.184822 20.232992 21.281162 22.329332 23.377502 24.425672 25.473842 26.522012 
-82.856400 -79.931231 -77.006062 -74.080893 -71.155724 -68.230555 -65.305386 -62.380217 -59.455048 -56.529879 -53.604710 -50.679541 -47.754372 -44.829203 -41.968781 -39.255976 -36.671302 -34.205310 -31.857998 -29.638818 -27.567255 -25.560438 -23.553622 -21.546806 -19.539990 -17.533174 -15.526358 -13.519541 -11.512725 -9.505909 -7.515941 -5.698716 -4.065097 -2.595318 -1.283190 -0.134902 0.829780 1.621719 2.396810 3.171901 3.946992 4.722083 5.497174 6.272265 7.047356 7.822446 8.597537 9.285240 9.773707 10.089238 10.244587 10.239753 10.061984 9.684979 9.220586 8.756193 8.291799 7.827406 7.363013 6.898620 6.434226 5.969833 5.505440 5.050919 4.697619 4.451905 4.302195 4.244862 4.283534 4.429792 4.677270 4.934621 5.191972 5.449323 5.706673 5.964024 6.221375 6.478726 6.736077 6.993428 7.308182 7.753810 8.313035 8.977481 9.747147 10.630411 11.644548 12.716089 13.787630 14.859170 15.930711 17.002252 18.073793 19.145333 20.216874 21.288415 22.359956 23.431496 24.503037 25.574578 
-83.276218 -80.315214 -77.354209 -74.393205 -71.432201 -68.471196 -65.510192 -62.549188 -59.588183 -56.627179 -53.666175 -50.705170 -47.744166 -44.783162 -41.894695 -39.159026 -36.555689 -34.075059 -31.717135 -29.491544 -27.418750 -25.418494 -23.418238 -21.417982 -19.417726 -17.417470 -15.417214 -13.416958 -11.416702 -9.416446 -7.435174 -5.620682 -3.978695 -2.490893 -1.151530 0.033648 1.046321 1.892214 2.719123 3.546032 4.372941 5.199851 6.026760 6.853669 7.680578 8.507487 9.334396 10.055111 10.552131 10.855419 10.979065 10.923069 10.673341 10.199918 9.620301 9.040684 8.461067 7.881450 7.301833 6.722216 6.142599 5.562982 4.983365 4.416946 3.966479 3.635943 3.412601 3.292459 3.279512 3.386497 3.609432 3.845566 4.081700 4.317834 4.553968 4.790101 5.026235 5.262369 5.498503 5.734637 6.035609 6.473162 7.029001 7.694524 8.469730 9.363222 10.393295 11.488206 12.583118 13.678029 14.772941 15.867852 16.962764 18.057675 19.152586 20.247498 21.342409 22.437321 23.532232 24.627143 
-83.696036 -80.699197 -77.702357 -74.705517 -71.708678 -68.711838 -65.714998 -62.718159 -59.721319 -56.724479 -53.727640 -50.730800 -47.733960 -44.737121 -41.812666 -39.048910 -36.424513 -33.929245 -31.563107 -29.336327 -27.270246 -25.276550 -23.282855 -21.289159 -19.295463 -17.301767 -15.308071 -13.314375 -11.320679 -9.326983 -7.349447 -5.529019 -3.874026 -2.366739 -1.001603 0.215827 1.267823 2.162709 3.041436 3.920164 4.798891 5.677618 6.556345 7.435073 8.313800 9.192527 10.071255 10.836436 11.349540 11.644040 11.735983 11.625370 11.296153 10.714857 10.020017 9.325176 8.630335 7.935494 7.240653 6.545813 5.850972 5.156131 4.461290 3.779634 3.226172 2.807696 2.509740 2.327772 2.266324 2.339863 2.541594 2.756511 2.971428 3.186345 3.401262 3.616179 3.831095 4.046012 4.260929 4.475846 4.755948 5.180764 5.731079 6.397678 7.180563 8.088945 9.142042 10.260324 11.378606 12.496888 13.615170 14.733452 15.851734 16.970017 18.088299 19.206581 20.324863 21.443145 22.561427 23.679709 
-84.115855 -81.083180 -78.050505 -75.017830 -71.985155 -68.952480 -65.919805 -62.887130 -59.854455 -56.821780 -53.789105 -50.756430 -47.723755 -44.691080 -41.722012 -38.923931 -36.275618 -33.765713 -31.394215 -29.172485 -27.121742 -25.134606 -23.147471 -21.160335 -19.173199 -17.186064 -15.198928 -13.211792 -11.224656 -9.237521 -7.260127 -5.425935 -3.753762 -2.225678 -0.836081 0.409427 1.492916 2.433204 3.363749 4.294295 5.224840 6.155386 7.085931 8.016477 8.947022 9.877568 10.808113 11.632766 12.172760 12.463420 12.523661 12.353481 11.933968 11.229796 10.419732 9.609667 8.799603 7.989538 7.179474 6.369409 5.559345 4.749280 3.939216 3.138406 2.473639 1.962790 1.588826 1.346425 1.240909 1.289312 1.473757 1.667457 1.861156 2.054856 2.248556 2.442256 2.635955 2.829655 3.023355 3.217055 3.468425 3.874823 4.417010 5.084686 5.877852 6.806806 7.890789 9.032442 10.174094 11.315747 12.457400 13.599053 14.740705 15.882358 17.024011 18.165664 19.307316 20.448969 21.590622 22.732275 
-84.535673 -81.467162 -78.398652 -75.330142 -72.261631 -69.193121 -66.124611 -63.056101 -59.987590 -56.919080 -53.850570 -50.782059 -47.713549 -44.645039 -41.623273 -38.782614 -36.106632 -33.582089 -31.208985 -29.000558 -26.973238 -24.992662 -23.012087 -21.031511 -19.050936 -17.070360 -15.089785 -13.109209 -11.128633 -9.148058 -7.170207 -5.314154 -3.620533 -2.070319 -0.657594 0.611724 1.718611 2.703699 3.686063 4.668426 5.650790 6.633154 7.615517 8.597881 9.580244 10.562608 11.544972 12.445370 13.028206 13.322285 13.350823 13.113819 12.588058 11.744735 10.819447 9.894159 8.968871 8.043582 7.118294 6.193006 5.267718 4.342429 3.417141 2.494849 1.706503 1.096789 0.644786 0.343984 0.200892 0.236433 0.405919 0.578402 0.750884 0.923367 1.095850 1.268333 1.440816 1.613298 1.785781 1.958264 2.173393 2.553748 3.084341 3.753094 4.560007 5.517158 6.639536 7.804559 8.969582 10.134606 11.299629 12.464653 13.629676 14.794700 15.959723 17.124747 18.289770 19.454794 20.619817 21.784840 
-84.955491 -81.851145 -78.746800 -75.642454 -72.538108 -69.433763 -66.329417 -63.225071 -60.120726 -57.016380 -53.912035 -50.807689 -47.703343 -44.598998 -41.519199 -38.623979 -35.914943 -33.375763 -31.006438 -28.823296 -26.824734 -24.850718 -22.876703 -20.902688 -18.928672 -16.954657 -14.980641 -13.006626 -11.032610 -9.058595 -7.084580 -5.197122 -3.477021 -1.903121 -0.468824 0.819273 1.940012 2.974194 4.008376 5.042558 6.076739 7.110921 8.145103 9.179285 10.213467 11.247648 12.281830 13.270957 13.921293 14.229893 14.226728 13.911797 13.255132 12.259675 11.219163 10.178651 9.138138 8.097626 7.057114 6.016602 4.976090 3.935578 2.895066 1.854554 0.923804 0.205274 -0.327863 -0.683972 -0.854689 -0.813185 -0.661919 -0.510653 -0.359387 -0.208122 -0.056856 0.094410 0.245676 0.396941 0.548207 0.699473 0.873261 1.216410 1.730390 2.400220 3.225900 4.222411 5.388282 6.576677 7.765071 8.953465 10.141859 11.330253 12.518647 13.707041 14.895435 16.083830 17.272224 18.460618 19.649012 20.837406 
-85.375309 -82.235128 -79.094947 -75.954766 -72.814585 -69.674404 -66.534223 -63.394042 -60.253861 -57.113680 -53.973499 -50.833319 -47.693138 -44.552957 -41.417160 -38.448253 -35.697705 -33.143887 -30.786799 -28.648069 -26.676230 -24.708774 -22.741319 -20.773864 -18.806409 -16.838953 -14.871498 -12.904043 -10.936588 -8.969132 -7.001677 -5.079630 -3.326136 -1.726442 -0.272681 1.027281 2.158689 3.244689 4.330689 5.416689 6.502689 7.588689 8.674689 9.760689 10.846689 11.932689 13.018689 14.096308 14.854907 15.196100 15.161233 14.750304 13.921969 12.774614 11.618878 10.463142 9.307406 8.151671 6.995935 5.840199 4.684463 3.528727 2.372992 1.217256 0.127757 -0.715871 -1.335152 -1.741558 -1.923617 -1.859805 -1.729757 -1.599708 -1.469659 -1.339610 -1.209562 -1.079513 -0.949464 -0.819415 -0.689367 -0.559318 -0.425225 -0.137194 0.352250 1.023157 1.875526 2.929309 4.137029 5.348794 6.560559 7.772324 8.984089 10.195853 11.407618 12.619383 13.831148 15.042913 16.254677 17.466442 18.678207 19.889972 
-85.795127 -82.619111 -79.443095 -76.267078 -73.091062 -69.915046 -66.739030 -63.563013 -60.386997 -57.210981 -54.034964 -50.858948 -47.682932 -44.506916 -41.330899 -38.258784 -35.451952 -32.883497 -30.553416 -28.488621 -26.527726 -24.566830 -22.605935 -20.645040 -18.684145 -16.723250 -14.762355 -12.801460 -10.840565 -8.879669 -6.918774 -4.969485 -3.171424 -1.542595 -0.072711 1.227941 2.377366 3.515184 4.653002 5.790820 6.928638 8.066457 9.204275 10.342093 11.479911 12.617729 13.755547 14.893366 15.825218 16.231188 16.164617 15.625506 14.560512 13.289553 12.018593 10.747634 9.476674 8.205715 6.934755 5.663796 4.392836 3.121876 1.850917 0.579957 -0.671546 -1.669534 -2.383824 -2.831662 -2.995801 -2.906426 -2.797594 -2.688763 -2.579931 -2.471099 -2.362268 -2.253436 -2.144604 -2.035772 -1.926941 -1.818109 -1.709277 -1.504139 -1.053108 -0.381124 0.511811 1.650641 2.885776 4.120912 5.356047 6.591183 7.826318 9.061454 10.296589 11.531725 12.766860 14.001995 15.237131 16.472266 17.707402 18.942537 
-86.214945 -83.003094 -79.791242 -76.579391 -73.367539 -70.155687 -66.943836 -63.731984 -60.520133 -57.308281 -54.096429 -50.884578 -47.672726 -44.460875 -41.249023 -38.068098 -35.175111 -32.592017 -30.318818 -28.333556 -26.379221 -24.424887 -22.470552 -20.516217 -18.561882 -16.607547 -14.653212 -12.698877 -10.744542 -8.790207 -6.835872 -4.881537 -3.018217 -1.353896 0.125754 1.406406 2.596042 3.785679 4.975315 6.164952 7.354588 8.544224 9.733861 10.923497 12.113133 13.302770 14.492406 15.682042 16.808331 17.344825 17.246551 16.513510 15.190675 13.804492 12.418309 11.032125 9.645942 8.259759 6.873575 5.487392 4.101209 2.715026 1.328842 -0.057341 -1.443524 -2.654294 -3.481535 -3.952863 -4.040662 -3.953047 -3.865432 -3.777817 -3.690203 -3.602588 -3.514973 -3.427359 -3.339744 -3.252129 -3.164515 -3.076900 -2.989285 -2.872874 -2.488361 -1.815300 -0.853693 0.376017 1.634523 2.893029 4.151535 5.410042 6.668548 7.927054 9.185560 10.444066 11.702572 12.961078 14.219585 15.478091 16.736597 17.995103 
-86.634764 -83.387077 -80.139390 -76.891703 -73.644016 -70.396329 -67.148642 -63.900955 -60.653268 -57.405581 -54.157894 -50.910207 -47.662520 -44.414834 -41.167147 -37.919460 -34.867361 -32.269630 -30.126267 -28.178492 -26.230717 -24.282943 -22.335168 -20.387393 -18.439618 -16.491843 -14.544068 -12.596293 -10.648519 -8.700744 -6.752969 -4.805194 -2.878182 -1.162726 0.311047 1.573265 2.814719 4.056174 5.297628 6.539083 7.780537 9.021992 10.263446 11.504901 12.746356 13.987810 15.229265 16.470719 17.712174 18.540930 18.410954 17.322245 15.820838 14.319431 12.818024 11.316617 9.815210 8.313803 6.812396 5.310989 3.809582 2.308175 0.806768 -0.694639 -2.196047 -3.651367 -4.637100 -5.086376 -5.066065 -4.999668 -4.933270 -4.866872 -4.800475 -4.734077 -4.667679 -4.601282 -4.534884 -4.468486 -4.402089 -4.335691 -4.269293 -4.202896 -3.953614 -3.279476 -2.180484 -0.898607 0.383270 1.665147 2.947024 4.228900 5.510777 6.792654 8.074531 9.356408 10.638285 11.920161 13.202038 14.483915 15.765792 17.047669 
-87.054582 -83.771060 -80.487537 -77.204015 -73.920493 -70.636971 -67.353448 -64.069926 -60.786404 -57.502882 -54.219359 -50.935837 -47.652315 -44.368793 -41.085270 -37.801748 -34.549158 -31.936789 -29.964643 -28.023428 -26.082213 -24.140999 -22.199784 -20.258569 -18.317354 -16.376140 -14.434925 -12.493710 -10.552496 -8.611281 -6.670066 -4.728852 -2.787637 -0.971591 0.446851 1.740123 3.033396 4.326669 5.619941 6.913214 8.206487 9.499760 10.793032 12.086305 13.379578 14.672851 15.966123 17.259396 18.552669 19.778885 19.617206 18.067632 16.451001 14.834370 13.217739 11.601108 9.984478 8.367847 6.751216 5.134585 3.517954 1.901324 0.284693 -1.331938 -2.948569 -4.565200 -5.860802 -6.136650 -6.091469 -6.046288 -6.001108 -5.955927 -5.910746 -5.865566 -5.820385 -5.775204 -5.730024 -5.684843 -5.639662 -5.594482 -5.549301 -5.504120 -5.429903 -4.754689 -3.478478 -2.173231 -0.867983 0.437264 1.742512 3.047759 4.353007 5.658254 6.963502 8.268749 9.573997 10.879244 12.184492 13.489739 14.794987 16.100234 
-87.474400 -84.155042 -80.835685 -77.516327 -74.196970 -70.877612 -67.558255 -64.238897 -60.919539 -57.600182 -54.280824 -50.961467 -47.642109 -44.322752 -41.003394 -37.684036 -34.364679 -31.737673 -29.803018 -27.868364 -25.933709 -23.999055 -22.064400 -20.129745 -18.195091 -16.260436 -14.325782 -12.391127 -10.456473 -8.521818 -6.587164 -4.652509 -2.717855 -0.783200 0.561891 1.906982 3.252073 4.597164 5.942255 7.287345 8.632436 9.977527 11.322618 12.667709 14.012800 15.357891 16.702982 18.048073 19.393164 20.738255 20.544873 18.813018 17.081164 15.349309 13.617455 11.885600 10.153745 8.421891 6.690036 4.958182 3.226327 1.494473 -0.237382 -1.969236 -3.701091 -5.432945 -7.164800 -7.140836 -7.116873 -7.092909 -7.068945 -7.044982 -7.021018 -6.997055 -6.973091 -6.949127 -6.925164 -6.901200 -6.877236 -6.853273 -6.829309 -6.805345 -6.781382 -6.105091 -4.776473 -3.447855 -2.119236 -0.790618 0.538000 1.866618 3.195236 4.523855 5.852473 7.181091 8.509709 9.838327 11.166945 12.495564 13.824182 15.152800 
